(G-CODE GENERATED BY FLATCAM v8.91 - www.flatcam.org - Version Date: 2019/02/23)

(Name: pixel_1_capa-Edge.Cuts.gbr_panelized_cnc)
(Type: G-code from Geometry)
(Units: MM)

(Created on Monday, 08 April 2019 at 20:41)

(TOOL DIAMETER: 0.02 mm)

(Feedrate: 20.0 mm/min)
(Feedrate_Z: 20.0 mm/min)
(Feedrate rapids 50.0 mm/min)

(Z_Cut: -0.5 mm)
(Z_Move: 3.0 mm)
(Z Toolchange: 1.0 mm)
(X,Y Toolchange: 0.0000, 0.0000 mm)
(Z Start: None mm)
(Z End: 10.0 mm)
(Steps per circle: 64)
(Postprocessor Geometry: grbl_11)

(X range:   -0.0050 ...   16.0070  mm)
(Y range:   -0.0050 ...   95.1011  mm)

(Spindle Speed: None RPM)


G21
G90
G94
G17

G01 F20.00
G00 Z3.0000

M03
G00 X-0.0050 Y-0.0000
G01 F20.00
G01 Z-0.5000
G01 F20.00
G01 X-0.0050 Y8.6360 F20.00
G01 X-0.0042 Y8.6387 F20.00
G01 X-0.0022 Y8.6405 F20.00
G01 X16.0020 Y8.6410 F20.00
G01 X16.0047 Y8.6402 F20.00
G01 X16.0065 Y8.6382 F20.00
G01 X16.0069 Y8.6349 F20.00
G01 X16.0050 Y8.6320 F20.00
G01 X16.0050 Y0.0040 F20.00
G01 X16.0065 Y0.0022 F20.00
G01 X16.0070 Y-0.0000 F20.00
G01 X16.0062 Y-0.0027 F20.00
G01 X16.0042 Y-0.0045 F20.00
G01 X-0.0000 Y-0.0050 F20.00
G01 X-0.0035 Y-0.0035 F20.00
G01 X-0.0050 Y-0.0000 F20.00
G00 Z3.0000
G00 X0.0050 Y0.0050
G01 F20.00
G01 Z-0.5000
G01 F20.00
G01 X15.9950 Y0.0050 F20.00
G01 X15.9950 Y8.6310 F20.00
G01 X0.0050 Y8.6310 F20.00
G01 X0.0050 Y0.0050 F20.00
G00 Z3.0000
G00 X-0.0050 Y8.6460
G01 F20.00
G01 Z-0.5000
G01 F20.00
G01 X-0.0050 Y17.2820 F20.00
G01 X-0.0042 Y17.2847 F20.00
G01 X-0.0022 Y17.2865 F20.00
G01 X16.0020 Y17.2870 F20.00
G01 X16.0047 Y17.2862 F20.00
G01 X16.0065 Y17.2842 F20.00
G01 X16.0069 Y17.2809 F20.00
G01 X16.0050 Y17.2780 F20.00
G01 X16.0050 Y8.6500 F20.00
G01 X16.0065 Y8.6482 F20.00
G01 X16.0070 Y8.6460 F20.00
G01 X16.0062 Y8.6433 F20.00
G01 X16.0042 Y8.6415 F20.00
G01 X-0.0000 Y8.6410 F20.00
G01 X-0.0035 Y8.6425 F20.00
G01 X-0.0050 Y8.6460 F20.00
G00 Z3.0000
G00 X0.0050 Y8.6510
G01 F20.00
G01 Z-0.5000
G01 F20.00
G01 X15.9950 Y8.6510 F20.00
G01 X15.9950 Y17.2770 F20.00
G01 X0.0050 Y17.2770 F20.00
G01 X0.0050 Y8.6510 F20.00
G00 Z3.0000
G00 X-0.0050 Y17.2920
G01 F20.00
G01 Z-0.5000
G01 F20.00
G01 X-0.0050 Y25.9280 F20.00
G01 X-0.0042 Y25.9307 F20.00
G01 X-0.0022 Y25.9325 F20.00
G01 X16.0020 Y25.9330 F20.00
G01 X16.0047 Y25.9322 F20.00
G01 X16.0065 Y25.9302 F20.00
G01 X16.0069 Y25.9269 F20.00
G01 X16.0050 Y25.9240 F20.00
G01 X16.0050 Y17.2960 F20.00
G01 X16.0065 Y17.2942 F20.00
G01 X16.0070 Y17.2920 F20.00
G01 X16.0062 Y17.2893 F20.00
G01 X16.0042 Y17.2875 F20.00
G01 X-0.0000 Y17.2870 F20.00
G01 X-0.0035 Y17.2885 F20.00
G01 X-0.0050 Y17.2920 F20.00
G00 Z3.0000
G00 X0.0050 Y17.2970
G01 F20.00
G01 Z-0.5000
G01 F20.00
G01 X15.9950 Y17.2970 F20.00
G01 X15.9950 Y25.9230 F20.00
G01 X0.0050 Y25.9230 F20.00
G01 X0.0050 Y17.2970 F20.00
G00 Z3.0000
G00 X-0.0050 Y25.9380
G01 F20.00
G01 Z-0.5000
G01 F20.00
G01 X-0.0050 Y34.5740 F20.00
G01 X-0.0042 Y34.5767 F20.00
G01 X-0.0022 Y34.5785 F20.00
G01 X16.0020 Y34.5790 F20.00
G01 X16.0047 Y34.5783 F20.00
G01 X16.0065 Y34.5762 F20.00
G01 X16.0069 Y34.5729 F20.00
G01 X16.0050 Y34.5700 F20.00
G01 X16.0050 Y25.9420 F20.00
G01 X16.0065 Y25.9402 F20.00
G01 X16.0070 Y25.9380 F20.00
G01 X16.0062 Y25.9354 F20.00
G01 X16.0042 Y25.9335 F20.00
G01 X-0.0000 Y25.9330 F20.00
G01 X-0.0035 Y25.9345 F20.00
G01 X-0.0050 Y25.9380 F20.00
G00 Z3.0000
G00 X0.0050 Y25.9430
G01 F20.00
G01 Z-0.5000
G01 F20.00
G01 X15.9950 Y25.9430 F20.00
G01 X15.9950 Y34.5690 F20.00
G01 X0.0050 Y34.5690 F20.00
G01 X0.0050 Y25.9430 F20.00
G00 Z3.0000
G00 X-0.0050 Y34.5840
G01 F20.00
G01 Z-0.5000
G01 F20.00
G01 X-0.0050 Y43.2200 F20.00
G01 X-0.0042 Y43.2227 F20.00
G01 X-0.0022 Y43.2245 F20.00
G01 X16.0020 Y43.2250 F20.00
G01 X16.0047 Y43.2243 F20.00
G01 X16.0065 Y43.2222 F20.00
G01 X16.0069 Y43.2189 F20.00
G01 X16.0050 Y43.2160 F20.00
G01 X16.0050 Y34.5880 F20.00
G01 X16.0065 Y34.5862 F20.00
G01 X16.0070 Y34.5840 F20.00
G01 X16.0062 Y34.5814 F20.00
G01 X16.0042 Y34.5795 F20.00
G01 X-0.0000 Y34.5790 F20.00
G01 X-0.0035 Y34.5805 F20.00
G01 X-0.0050 Y34.5840 F20.00
G00 Z3.0000
G00 X0.0050 Y34.5890
G01 F20.00
G01 Z-0.5000
G01 F20.00
G01 X15.9950 Y34.5890 F20.00
G01 X15.9950 Y43.2150 F20.00
G01 X0.0050 Y43.2150 F20.00
G01 X0.0050 Y34.5890 F20.00
G00 Z3.0000
G00 X-0.0050 Y43.2300
G01 F20.00
G01 Z-0.5000
G01 F20.00
G01 X-0.0050 Y51.8660 F20.00
G01 X-0.0042 Y51.8687 F20.00
G01 X-0.0022 Y51.8705 F20.00
G01 X16.0020 Y51.8710 F20.00
G01 X16.0047 Y51.8703 F20.00
G01 X16.0065 Y51.8682 F20.00
G01 X16.0069 Y51.8649 F20.00
G01 X16.0050 Y51.8620 F20.00
G01 X16.0050 Y43.2340 F20.00
G01 X16.0065 Y43.2322 F20.00
G01 X16.0070 Y43.2300 F20.00
G01 X16.0062 Y43.2274 F20.00
G01 X16.0042 Y43.2255 F20.00
G01 X-0.0000 Y43.2250 F20.00
G01 X-0.0035 Y43.2265 F20.00
G01 X-0.0050 Y43.2300 F20.00
G00 Z3.0000
G00 X0.0050 Y43.2350
G01 F20.00
G01 Z-0.5000
G01 F20.00
G01 X15.9950 Y43.2350 F20.00
G01 X15.9950 Y51.8610 F20.00
G01 X0.0050 Y51.8610 F20.00
G01 X0.0050 Y43.2350 F20.00
G00 Z3.0000
G00 X-0.0050 Y51.8760
G01 F20.00
G01 Z-0.5000
G01 F20.00
G01 X-0.0050 Y60.5120 F20.00
G01 X-0.0042 Y60.5147 F20.00
G01 X-0.0022 Y60.5165 F20.00
G01 X16.0020 Y60.5170 F20.00
G01 X16.0047 Y60.5163 F20.00
G01 X16.0065 Y60.5142 F20.00
G01 X16.0069 Y60.5109 F20.00
G01 X16.0050 Y60.5080 F20.00
G01 X16.0050 Y51.8800 F20.00
G01 X16.0065 Y51.8782 F20.00
G01 X16.0070 Y51.8760 F20.00
G01 X16.0062 Y51.8734 F20.00
G01 X16.0042 Y51.8715 F20.00
G01 X-0.0000 Y51.8710 F20.00
G01 X-0.0035 Y51.8725 F20.00
G01 X-0.0050 Y51.8760 F20.00
G00 Z3.0000
G00 X0.0050 Y51.8810
G01 F20.00
G01 Z-0.5000
G01 F20.00
G01 X15.9950 Y51.8810 F20.00
G01 X15.9950 Y60.5070 F20.00
G01 X0.0050 Y60.5070 F20.00
G01 X0.0050 Y51.8810 F20.00
G00 Z3.0000
G00 X-0.0050 Y60.5220
G01 F20.00
G01 Z-0.5000
G01 F20.00
G01 X-0.0050 Y69.1580 F20.00
G01 X-0.0042 Y69.1607 F20.00
G01 X-0.0022 Y69.1625 F20.00
G01 X16.0020 Y69.1630 F20.00
G01 X16.0047 Y69.1623 F20.00
G01 X16.0065 Y69.1602 F20.00
G01 X16.0069 Y69.1569 F20.00
G01 X16.0050 Y69.1540 F20.00
G01 X16.0050 Y60.5260 F20.00
G01 X16.0065 Y60.5242 F20.00
G01 X16.0070 Y60.5220 F20.00
G01 X16.0062 Y60.5194 F20.00
G01 X16.0042 Y60.5175 F20.00
G01 X-0.0000 Y60.5170 F20.00
G01 X-0.0035 Y60.5185 F20.00
G01 X-0.0050 Y60.5220 F20.00
G00 Z3.0000
G00 X0.0050 Y60.5270
G01 F20.00
G01 Z-0.5000
G01 F20.00
G01 X15.9950 Y60.5270 F20.00
G01 X15.9950 Y69.1530 F20.00
G01 X0.0050 Y69.1530 F20.00
G01 X0.0050 Y60.5270 F20.00
G00 Z3.0000
G00 X-0.0050 Y69.1680
G01 F20.00
G01 Z-0.5000
G01 F20.00
G01 X-0.0050 Y77.8040 F20.00
G01 X-0.0042 Y77.8067 F20.00
G01 X-0.0022 Y77.8085 F20.00
G01 X16.0020 Y77.8090 F20.00
G01 X16.0047 Y77.8083 F20.00
G01 X16.0065 Y77.8062 F20.00
G01 X16.0069 Y77.8029 F20.00
G01 X16.0050 Y77.8000 F20.00
G01 X16.0050 Y69.1720 F20.00
G01 X16.0065 Y69.1702 F20.00
G01 X16.0070 Y69.1680 F20.00
G01 X16.0062 Y69.1654 F20.00
G01 X16.0042 Y69.1635 F20.00
G01 X-0.0000 Y69.1630 F20.00
G01 X-0.0035 Y69.1645 F20.00
G01 X-0.0050 Y69.1680 F20.00
G00 Z3.0000
G00 X0.0050 Y69.1730
G01 F20.00
G01 Z-0.5000
G01 F20.00
G01 X15.9950 Y69.1730 F20.00
G01 X15.9950 Y77.7990 F20.00
G01 X0.0050 Y77.7990 F20.00
G01 X0.0050 Y69.1730 F20.00
G00 Z3.0000
G00 X-0.0050 Y77.8140
G01 F20.00
G01 Z-0.5000
G01 F20.00
G01 X-0.0050 Y86.4500 F20.00
G01 X-0.0042 Y86.4527 F20.00
G01 X-0.0022 Y86.4546 F20.00
G01 X16.0020 Y86.4550 F20.00
G01 X16.0047 Y86.4543 F20.00
G01 X16.0065 Y86.4522 F20.00
G01 X16.0069 Y86.4489 F20.00
G01 X16.0050 Y86.4461 F20.00
G01 X16.0050 Y77.8180 F20.00
G01 X16.0065 Y77.8162 F20.00
G01 X16.0070 Y77.8140 F20.00
G01 X16.0062 Y77.8114 F20.00
G01 X16.0042 Y77.8095 F20.00
G01 X-0.0000 Y77.8090 F20.00
G01 X-0.0035 Y77.8105 F20.00
G01 X-0.0050 Y77.8140 F20.00
G00 Z3.0000
G00 X0.0050 Y77.8190
G01 F20.00
G01 Z-0.5000
G01 F20.00
G01 X15.9950 Y77.8190 F20.00
G01 X15.9950 Y86.4450 F20.00
G01 X0.0050 Y86.4450 F20.00
G01 X0.0050 Y77.8190 F20.00
G00 Z3.0000
G00 X-0.0050 Y86.4601
G01 F20.00
G01 Z-0.5000
G01 F20.00
G01 X-0.0050 Y95.0961 F20.00
G01 X-0.0042 Y95.0987 F20.00
G01 X-0.0022 Y95.1006 F20.00
G01 X16.0020 Y95.1011 F20.00
G01 X16.0047 Y95.1003 F20.00
G01 X16.0065 Y95.0982 F20.00
G01 X16.0069 Y95.0949 F20.00
G01 X16.0050 Y95.0921 F20.00
G01 X16.0050 Y86.4640 F20.00
G01 X16.0065 Y86.4622 F20.00
G01 X16.0070 Y86.4601 F20.00
G01 X16.0062 Y86.4574 F20.00
G01 X16.0042 Y86.4555 F20.00
G01 X-0.0000 Y86.4550 F20.00
G01 X-0.0035 Y86.4565 F20.00
G01 X-0.0050 Y86.4601 F20.00
G00 Z3.0000
G00 X0.0050 Y86.4651
G01 F20.00
G01 Z-0.5000
G01 F20.00
G01 X15.9950 Y86.4651 F20.00
G01 X15.9950 Y95.0910 F20.00
G01 X0.0050 Y95.0910 F20.00
G01 X0.0050 Y86.4651 F20.00
G00 Z3.0000
M05
G00 Z3.0000
G00 Z10.00
G00 X0.0 Y0.0

