(G-CODE GENERATED BY FLATCAM v8.91 - www.flatcam.org - Version Date: 2019/02/23)

(Name: pixel_1_capa-F.Cu.gbr_iso_cnc)
(Type: G-code from Geometry)
(Units: MM)

(Created on Tuesday, 09 April 2019 at 20:17)

(TOOL DIAMETER: 0.02 mm)

(Feedrate: 20.0 mm/min)
(Feedrate_Z: 20.0 mm/min)
(Feedrate rapids 80.0 mm/min)

(Z_Cut: -0.02 mm)
(Z_Move: 2.0 mm)
(Z Toolchange: 1.0 mm)
(X,Y Toolchange: 0.0000, 0.0000 mm)
(Z Start: None mm)
(Z End: 10.0 mm)
(Steps per circle: 64)
(Postprocessor Geometry: grbl_11)

(X range:    0.4340 ...   15.6120  mm)
(Y range:    0.2589 ...   94.7782  mm)

(Spindle Speed: None RPM)


G21
G90
G94
G17

G01 F20.00
G00 Z2.0000

M03
G00 X0.5188 Y2.1419
G01 F20.00
G01 Z-0.0200
G01 F20.00
G01 X0.4823 Y2.0537 F20.00
G01 X0.4556 Y1.9612 F20.00
G01 X0.4394 Y1.8659 F20.00
G01 X0.4340 Y1.7700 F20.00
G01 X0.4394 Y1.6741 F20.00
G01 X0.4556 Y1.5788 F20.00
G01 X0.4823 Y1.4863 F20.00
G01 X0.5188 Y1.3981 F20.00
G01 X0.5654 Y1.3137 F20.00
G01 X0.6209 Y1.2354 F20.00
G01 X0.6856 Y1.1630 F20.00
G01 X0.7571 Y1.0991 F20.00
G01 X0.8357 Y1.0434 F20.00
G01 X0.9193 Y0.9972 F20.00
G01 X1.0083 Y0.9603 F20.00
G01 X1.1008 Y0.9336 F20.00
G01 X1.1955 Y0.9175 F20.00
G01 X1.2924 Y0.9120 F20.00
G01 X1.3879 Y0.9174 F20.00
G01 X1.4832 Y0.9336 F20.00
G01 X1.5757 Y0.9603 F20.00
G01 X1.6639 Y0.9968 F20.00
G01 X1.7483 Y1.0434 F20.00
G01 X1.8266 Y1.0989 F20.00
G01 X1.8990 Y1.1636 F20.00
G01 X1.9629 Y1.2351 F20.00
G01 X2.0186 Y1.3137 F20.00
G01 X2.0648 Y1.3973 F20.00
G01 X2.0916 Y1.4618 F20.00
G01 X3.8949 Y1.4618 F20.00
G01 X5.0079 Y0.3488 F20.00
G01 X5.0334 Y0.3260 F20.00
G01 X5.0617 Y0.3060 F20.00
G01 X5.0914 Y0.2896 F20.00
G01 X5.1233 Y0.2763 F20.00
G01 X5.1574 Y0.2665 F20.00
G01 X5.1912 Y0.2608 F20.00
G01 X5.2255 Y0.2589 F20.00
G01 X12.3445 Y0.2589 F20.00
G01 X12.3795 Y0.2609 F20.00
G01 X12.4134 Y0.2667 F20.00
G01 X12.4459 Y0.2760 F20.00
G01 X12.4786 Y0.2896 F20.00
G01 X12.5083 Y0.3060 F20.00
G01 X12.5363 Y0.3258 F20.00
G01 X12.5621 Y0.3488 F20.00
G01 X13.6751 Y1.4618 F20.00
G01 X13.9544 Y1.4618 F20.00
G01 X13.9812 Y1.3973 F20.00
G01 X14.0274 Y1.3137 F20.00
G01 X14.0831 Y1.2351 F20.00
G01 X14.1470 Y1.1636 F20.00
G01 X14.2194 Y1.0989 F20.00
G01 X14.2977 Y1.0434 F20.00
G01 X14.3821 Y0.9968 F20.00
G01 X14.4710 Y0.9600 F20.00
G01 X14.5628 Y0.9336 F20.00
G01 X14.6575 Y0.9175 F20.00
G01 X14.7540 Y0.9120 F20.00
G01 X14.8505 Y0.9175 F20.00
G01 X14.9452 Y0.9336 F20.00
G01 X15.0370 Y0.9600 F20.00
G01 X15.1267 Y0.9972 F20.00
G01 X15.2103 Y1.0434 F20.00
G01 X15.2889 Y1.0991 F20.00
G01 X15.3607 Y1.1633 F20.00
G01 X15.4245 Y1.2347 F20.00
G01 X15.4807 Y1.3139 F20.00
G01 X15.5272 Y1.3981 F20.00
G01 X15.5637 Y1.4863 F20.00
G01 X15.5906 Y1.5795 F20.00
G01 X15.6066 Y1.6741 F20.00
G01 X15.6120 Y1.7700 F20.00
G01 X15.6066 Y1.8659 F20.00
G01 X15.5904 Y1.9612 F20.00
G01 X15.5637 Y2.0537 F20.00
G01 X15.5272 Y2.1419 F20.00
G01 X15.4806 Y2.2263 F20.00
G01 X15.4251 Y2.3046 F20.00
G01 X15.3604 Y2.3770 F20.00
G01 X15.2889 Y2.4409 F20.00
G01 X15.2103 Y2.4966 F20.00
G01 X15.1267 Y2.5428 F20.00
G01 X15.0377 Y2.5797 F20.00
G01 X14.9452 Y2.6064 F20.00
G01 X14.8499 Y2.6226 F20.00
G01 X14.7540 Y2.6280 F20.00
G01 X14.6581 Y2.6226 F20.00
G01 X14.5628 Y2.6064 F20.00
G01 X14.4702 Y2.5797 F20.00
G01 X14.3821 Y2.5432 F20.00
G01 X14.2979 Y2.4967 F20.00
G01 X14.2191 Y2.4409 F20.00
G01 X14.1473 Y2.3767 F20.00
G01 X14.0829 Y2.3046 F20.00
G01 X14.0273 Y2.2261 F20.00
G01 X13.9812 Y2.1427 F20.00
G01 X13.9544 Y2.0782 F20.00
G01 X13.5475 Y2.0782 F20.00
G01 X13.5132 Y2.0762 F20.00
G01 X13.4786 Y2.0703 F20.00
G01 X13.4453 Y2.0607 F20.00
G01 X13.4134 Y2.0474 F20.00
G01 X13.3837 Y2.0310 F20.00
G01 X13.3557 Y2.0112 F20.00
G01 X13.3296 Y1.9879 F20.00
G01 X12.2169 Y0.8752 F20.00
G01 X6.6042 Y0.8752 F20.00
G01 X6.6042 Y1.1020 F20.00
G01 X6.7960 Y1.1020 F20.00
G01 X6.7992 Y1.1027 F20.00
G01 X6.8014 Y1.1041 F20.00
G01 X6.8029 Y1.1060 F20.00
G01 X6.8040 Y1.1092 F20.00
G01 X6.8040 Y2.6100 F20.00
G01 X6.8033 Y2.6132 F20.00
G01 X6.8007 Y2.6165 F20.00
G01 X6.7960 Y2.6180 F20.00
G01 X5.7952 Y2.6180 F20.00
G01 X5.7920 Y2.6169 F20.00
G01 X5.7901 Y2.6154 F20.00
G01 X5.7887 Y2.6132 F20.00
G01 X5.7880 Y2.6100 F20.00
G01 X5.7880 Y1.1092 F20.00
G01 X5.7891 Y1.1060 F20.00
G01 X5.7906 Y1.1041 F20.00
G01 X5.7928 Y1.1027 F20.00
G01 X5.7960 Y1.1020 F20.00
G01 X5.9878 Y1.1020 F20.00
G01 X5.9878 Y0.8752 F20.00
G01 X5.3531 Y0.8752 F20.00
G01 X4.3942 Y1.8341 F20.00
G01 X4.3942 Y2.7015 F20.00
G01 X4.5423 Y2.7015 F20.00
G01 X4.5669 Y2.7027 F20.00
G01 X4.5915 Y2.7064 F20.00
G01 X4.6153 Y2.7123 F20.00
G01 X4.6388 Y2.7207 F20.00
G01 X4.6613 Y2.7314 F20.00
G01 X4.6824 Y2.7442 F20.00
G01 X4.7021 Y2.7588 F20.00
G01 X4.7200 Y2.7750 F20.00
G01 X4.7367 Y2.7934 F20.00
G01 X4.7516 Y2.8134 F20.00
G01 X4.7644 Y2.8348 F20.00
G01 X4.7750 Y2.8573 F20.00
G01 X4.7832 Y2.8802 F20.00
G01 X4.7891 Y2.9038 F20.00
G01 X4.7928 Y2.9286 F20.00
G01 X4.7940 Y2.9532 F20.00
G01 X4.7940 Y3.4408 F20.00
G01 X4.7927 Y3.4658 F20.00
G01 X4.7891 Y3.4900 F20.00
G01 X4.7832 Y3.5138 F20.00
G01 X4.7747 Y3.5374 F20.00
G01 X4.7644 Y3.5592 F20.00
G01 X4.7516 Y3.5806 F20.00
G01 X4.7367 Y3.6006 F20.00
G01 X4.7205 Y3.6185 F20.00
G01 X4.7016 Y3.6356 F20.00
G01 X4.6821 Y3.6501 F20.00
G01 X4.6613 Y3.6626 F20.00
G01 X4.6382 Y3.6735 F20.00
G01 X4.6153 Y3.6817 F20.00
G01 X4.5915 Y3.6876 F20.00
G01 X4.5669 Y3.6913 F20.00
G01 X4.5426 Y3.6925 F20.00
G01 X3.6297 Y3.6925 F20.00
G01 X3.6051 Y3.6913 F20.00
G01 X3.5803 Y3.6876 F20.00
G01 X3.5567 Y3.6817 F20.00
G01 X3.5338 Y3.6735 F20.00
G01 X3.5113 Y3.6629 F20.00
G01 X3.4899 Y3.6501 F20.00
G01 X3.4697 Y3.6351 F20.00
G01 X3.4517 Y3.6188 F20.00
G01 X3.4354 Y3.6008 F20.00
G01 X3.4204 Y3.5806 F20.00
G01 X3.4076 Y3.5591 F20.00
G01 X3.3972 Y3.5373 F20.00
G01 X3.3887 Y3.5135 F20.00
G01 X3.3829 Y3.4900 F20.00
G01 X3.3793 Y3.4658 F20.00
G01 X3.3780 Y3.4411 F20.00
G01 X3.3780 Y2.9532 F20.00
G01 X3.3792 Y2.9286 F20.00
G01 X3.3829 Y2.9038 F20.00
G01 X3.3888 Y2.8802 F20.00
G01 X3.3973 Y2.8566 F20.00
G01 X3.4076 Y2.8348 F20.00
G01 X3.4202 Y2.8137 F20.00
G01 X3.4349 Y2.7939 F20.00
G01 X3.4517 Y2.7752 F20.00
G01 X3.4699 Y2.7588 F20.00
G01 X3.4899 Y2.7439 F20.00
G01 X3.5113 Y2.7311 F20.00
G01 X3.5332 Y2.7207 F20.00
G01 X3.5567 Y2.7123 F20.00
G01 X3.5805 Y2.7064 F20.00
G01 X3.6051 Y2.7027 F20.00
G01 X3.6297 Y2.7015 F20.00
G01 X3.7778 Y2.7015 F20.00
G01 X3.7778 Y2.0782 F20.00
G01 X2.0916 Y2.0782 F20.00
G01 X2.0648 Y2.1427 F20.00
G01 X2.0187 Y2.2261 F20.00
G01 X1.9629 Y2.3049 F20.00
G01 X1.8984 Y2.3770 F20.00
G01 X1.8269 Y2.4409 F20.00
G01 X1.7489 Y2.4962 F20.00
G01 X1.6647 Y2.5428 F20.00
G01 X1.5750 Y2.5800 F20.00
G01 X1.4832 Y2.6064 F20.00
G01 X1.3885 Y2.6225 F20.00
G01 X1.2920 Y2.6280 F20.00
G01 X1.1961 Y2.6226 F20.00
G01 X1.1006 Y2.6064 F20.00
G01 X1.0083 Y2.5797 F20.00
G01 X0.9201 Y2.5432 F20.00
G01 X0.8357 Y2.4966 F20.00
G01 X0.7567 Y2.4405 F20.00
G01 X0.6853 Y2.3767 F20.00
G01 X0.6215 Y2.3053 F20.00
G01 X0.5654 Y2.2263 F20.00
G01 X0.5188 Y2.1419 F20.00
G00 Z2.0000
G00 X0.5188 Y4.6819
G01 F20.00
G01 Z-0.0200
G01 F20.00
G01 X0.4823 Y4.5937 F20.00
G01 X0.4556 Y4.5012 F20.00
G01 X0.4394 Y4.4059 F20.00
G01 X0.4340 Y4.3100 F20.00
G01 X0.4394 Y4.2141 F20.00
G01 X0.4556 Y4.1188 F20.00
G01 X0.4823 Y4.0263 F20.00
G01 X0.5192 Y3.9373 F20.00
G01 X0.5654 Y3.8537 F20.00
G01 X0.6211 Y3.7751 F20.00
G01 X0.6853 Y3.7033 F20.00
G01 X0.7574 Y3.6389 F20.00
G01 X0.8357 Y3.5834 F20.00
G01 X0.9193 Y3.5372 F20.00
G01 X1.0082 Y3.5003 F20.00
G01 X1.1008 Y3.4736 F20.00
G01 X1.1955 Y3.4575 F20.00
G01 X1.2924 Y3.4520 F20.00
G01 X1.3879 Y3.4574 F20.00
G01 X1.4834 Y3.4736 F20.00
G01 X1.5757 Y3.5003 F20.00
G01 X1.6639 Y3.5368 F20.00
G01 X1.7483 Y3.5834 F20.00
G01 X1.8266 Y3.6389 F20.00
G01 X1.8990 Y3.7036 F20.00
G01 X1.9629 Y3.7751 F20.00
G01 X2.0186 Y3.8537 F20.00
G01 X2.0648 Y3.9373 F20.00
G01 X2.1017 Y4.0263 F20.00
G01 X2.1284 Y4.1188 F20.00
G01 X2.1341 Y4.1519 F20.00
G01 X2.6235 Y4.1519 F20.00
G01 X2.7677 Y4.0077 F20.00
G01 X2.7810 Y3.9959 F20.00
G01 X2.7958 Y3.9854 F20.00
G01 X2.8113 Y3.9769 F20.00
G01 X2.8270 Y3.9704 F20.00
G01 X2.8448 Y3.9653 F20.00
G01 X2.8620 Y3.9624 F20.00
G01 X2.8791 Y3.9614 F20.00
G01 X5.4830 Y3.9614 F20.00
G01 X5.5005 Y3.9624 F20.00
G01 X5.5185 Y3.9655 F20.00
G01 X5.5355 Y3.9704 F20.00
G01 X5.5512 Y3.9769 F20.00
G01 X5.5675 Y3.9859 F20.00
G01 X5.5815 Y3.9959 F20.00
G01 X5.5948 Y4.0077 F20.00
G01 X6.4078 Y4.8207 F20.00
G01 X6.4196 Y4.8340 F20.00
G01 X6.4299 Y4.8485 F20.00
G01 X6.4382 Y4.8635 F20.00
G01 X6.4451 Y4.8800 F20.00
G01 X6.4502 Y4.8978 F20.00
G01 X6.4531 Y4.9150 F20.00
G01 X6.4541 Y4.9325 F20.00
G01 X6.4541 Y6.0020 F20.00
G01 X6.7960 Y6.0020 F20.00
G01 X6.7992 Y6.0027 F20.00
G01 X6.8014 Y6.0041 F20.00
G01 X6.8029 Y6.0060 F20.00
G01 X6.8040 Y6.0092 F20.00
G01 X6.8040 Y7.5100 F20.00
G01 X6.8033 Y7.5132 F20.00
G01 X6.8007 Y7.5165 F20.00
G01 X6.7960 Y7.5180 F20.00
G01 X5.7960 Y7.5180 F20.00
G01 X5.7913 Y7.5165 F20.00
G01 X5.7887 Y7.5132 F20.00
G01 X5.7880 Y7.5100 F20.00
G01 X5.7880 Y6.0092 F20.00
G01 X5.7891 Y6.0060 F20.00
G01 X5.7906 Y6.0041 F20.00
G01 X5.7928 Y6.0027 F20.00
G01 X5.7960 Y6.0020 F20.00
G01 X6.1379 Y6.0020 F20.00
G01 X6.1379 Y4.9980 F20.00
G01 X5.4175 Y4.2776 F20.00
G01 X2.9450 Y4.2776 F20.00
G01 X2.8008 Y4.4218 F20.00
G01 X2.7879 Y4.4333 F20.00
G01 X2.7730 Y4.4439 F20.00
G01 X2.7580 Y4.4522 F20.00
G01 X2.7415 Y4.4591 F20.00
G01 X2.7245 Y4.4640 F20.00
G01 X2.7065 Y4.4671 F20.00
G01 X2.6890 Y4.4681 F20.00
G01 X2.1341 Y4.4681 F20.00
G01 X2.1284 Y4.5012 F20.00
G01 X2.1020 Y4.5930 F20.00
G01 X2.0648 Y4.6827 F20.00
G01 X2.0186 Y4.7663 F20.00
G01 X1.9631 Y4.8446 F20.00
G01 X1.8984 Y4.9170 F20.00
G01 X1.8269 Y4.9809 F20.00
G01 X1.7489 Y5.0362 F20.00
G01 X1.6639 Y5.0832 F20.00
G01 X1.5757 Y5.1197 F20.00
G01 X1.4834 Y5.1464 F20.00
G01 X1.3879 Y5.1626 F20.00
G01 X1.2920 Y5.1680 F20.00
G01 X1.1964 Y5.1626 F20.00
G01 X1.1008 Y5.1464 F20.00
G01 X1.0082 Y5.1197 F20.00
G01 X0.9201 Y5.0832 F20.00
G01 X0.8359 Y5.0367 F20.00
G01 X0.7567 Y4.9805 F20.00
G01 X0.6853 Y4.9167 F20.00
G01 X0.6215 Y4.8453 F20.00
G01 X0.5654 Y4.7663 F20.00
G01 X0.5188 Y4.6819 F20.00
G00 Z2.0000
G00 X0.4420 Y5.9920
G01 F20.00
G01 Z-0.0200
G01 F20.00
G01 X2.1437 Y5.9922 F20.00
G01 X2.1479 Y5.9946 F20.00
G01 X2.1493 Y5.9968 F20.00
G01 X2.1500 Y6.0000 F20.00
G01 X2.1500 Y6.5418 F20.00
G01 X3.7778 Y6.5418 F20.00
G01 X3.7778 Y5.5675 F20.00
G01 X3.6297 Y5.5675 F20.00
G01 X3.6051 Y5.5663 F20.00
G01 X3.5805 Y5.5626 F20.00
G01 X3.5570 Y5.5568 F20.00
G01 X3.5332 Y5.5483 F20.00
G01 X3.5113 Y5.5379 F20.00
G01 X3.4899 Y5.5251 F20.00
G01 X3.4699 Y5.5102 F20.00
G01 X3.4517 Y5.4938 F20.00
G01 X3.4353 Y5.4756 F20.00
G01 X3.4204 Y5.4556 F20.00
G01 X3.4076 Y5.4342 F20.00
G01 X3.3972 Y5.4123 F20.00
G01 X3.3888 Y5.3888 F20.00
G01 X3.3829 Y5.3650 F20.00
G01 X3.3792 Y5.3404 F20.00
G01 X3.3780 Y5.3161 F20.00
G01 X3.3780 Y4.8282 F20.00
G01 X3.3792 Y4.8036 F20.00
G01 X3.3829 Y4.7790 F20.00
G01 X3.3888 Y4.7552 F20.00
G01 X3.3972 Y4.7317 F20.00
G01 X3.4079 Y4.7092 F20.00
G01 X3.4204 Y4.6884 F20.00
G01 X3.4349 Y4.6689 F20.00
G01 X3.4517 Y4.6502 F20.00
G01 X3.4704 Y4.6334 F20.00
G01 X3.4899 Y4.6189 F20.00
G01 X3.5107 Y4.6064 F20.00
G01 X3.5332 Y4.5957 F20.00
G01 X3.5570 Y4.5872 F20.00
G01 X3.5805 Y4.5814 F20.00
G01 X3.6047 Y4.5778 F20.00
G01 X3.6297 Y4.5765 F20.00
G01 X4.5423 Y4.5765 F20.00
G01 X4.5669 Y4.5777 F20.00
G01 X4.5915 Y4.5814 F20.00
G01 X4.6150 Y4.5872 F20.00
G01 X4.6388 Y4.5957 F20.00
G01 X4.6607 Y4.6061 F20.00
G01 X4.6818 Y4.6187 F20.00
G01 X4.7021 Y4.6338 F20.00
G01 X4.7203 Y4.6502 F20.00
G01 X4.7366 Y4.6682 F20.00
G01 X4.7516 Y4.6884 F20.00
G01 X4.7644 Y4.7098 F20.00
G01 X4.7747 Y4.7316 F20.00
G01 X4.7832 Y4.7552 F20.00
G01 X4.7891 Y4.7790 F20.00
G01 X4.7927 Y4.8032 F20.00
G01 X4.7940 Y4.8282 F20.00
G01 X4.7940 Y5.3158 F20.00
G01 X4.7928 Y5.3404 F20.00
G01 X4.7891 Y5.3652 F20.00
G01 X4.7832 Y5.3888 F20.00
G01 X4.7750 Y5.4117 F20.00
G01 X4.7644 Y5.4342 F20.00
G01 X4.7516 Y5.4556 F20.00
G01 X4.7367 Y5.4756 F20.00
G01 X4.7200 Y5.4940 F20.00
G01 X4.7021 Y5.5102 F20.00
G01 X4.6824 Y5.5248 F20.00
G01 X4.6613 Y5.5376 F20.00
G01 X4.6388 Y5.5483 F20.00
G01 X4.6153 Y5.5567 F20.00
G01 X4.5915 Y5.5626 F20.00
G01 X4.5669 Y5.5663 F20.00
G01 X4.5423 Y5.5675 F20.00
G01 X4.3942 Y5.5675 F20.00
G01 X4.3942 Y6.7224 F20.00
G01 X5.3736 Y7.7019 F20.00
G01 X9.1878 Y7.7019 F20.00
G01 X9.1878 Y7.5180 F20.00
G01 X8.9960 Y7.5180 F20.00
G01 X8.9928 Y7.5173 F20.00
G01 X8.9906 Y7.5159 F20.00
G01 X8.9891 Y7.5140 F20.00
G01 X8.9880 Y7.5108 F20.00
G01 X8.9880 Y6.0100 F20.00
G01 X8.9887 Y6.0068 F20.00
G01 X8.9906 Y6.0041 F20.00
G01 X8.9928 Y6.0027 F20.00
G01 X8.9960 Y6.0020 F20.00
G01 X9.9960 Y6.0020 F20.00
G01 X10.0007 Y6.0035 F20.00
G01 X10.0033 Y6.0068 F20.00
G01 X10.0040 Y6.0100 F20.00
G01 X10.0040 Y7.5108 F20.00
G01 X10.0029 Y7.5140 F20.00
G01 X10.0014 Y7.5159 F20.00
G01 X9.9992 Y7.5173 F20.00
G01 X9.9960 Y7.5180 F20.00
G01 X9.8042 Y7.5180 F20.00
G01 X9.8042 Y7.7019 F20.00
G01 X12.0164 Y7.7019 F20.00
G01 X13.0861 Y6.6321 F20.00
G01 X13.1119 Y6.6090 F20.00
G01 X13.1402 Y6.5890 F20.00
G01 X13.1699 Y6.5726 F20.00
G01 X13.2019 Y6.5593 F20.00
G01 X13.2351 Y6.5497 F20.00
G01 X13.2699 Y6.5437 F20.00
G01 X13.3040 Y6.5418 F20.00
G01 X13.8960 Y6.5418 F20.00
G01 X13.8960 Y6.0000 F20.00
G01 X13.8967 Y5.9968 F20.00
G01 X13.8981 Y5.9946 F20.00
G01 X13.9008 Y5.9927 F20.00
G01 X13.9040 Y5.9920 F20.00
G01 X15.6040 Y5.9920 F20.00
G01 X15.6072 Y5.9927 F20.00
G01 X15.6099 Y5.9946 F20.00
G01 X15.6113 Y5.9968 F20.00
G01 X15.6120 Y6.0000 F20.00
G01 X15.6120 Y7.7008 F20.00
G01 X15.6109 Y7.7040 F20.00
G01 X15.6094 Y7.7059 F20.00
G01 X15.6072 Y7.7073 F20.00
G01 X15.6040 Y7.7080 F20.00
G01 X13.9023 Y7.7078 F20.00
G01 X13.8981 Y7.7054 F20.00
G01 X13.8967 Y7.7032 F20.00
G01 X13.8960 Y7.7000 F20.00
G01 X13.8960 Y7.1582 F20.00
G01 X13.4316 Y7.1582 F20.00
G01 X12.3616 Y8.2282 F20.00
G01 X12.3358 Y8.2512 F20.00
G01 X12.3078 Y8.2710 F20.00
G01 X12.2781 Y8.2874 F20.00
G01 X12.2453 Y8.3010 F20.00
G01 X12.2129 Y8.3103 F20.00
G01 X12.1789 Y8.3162 F20.00
G01 X12.1440 Y8.3182 F20.00
G01 X5.2460 Y8.3182 F20.00
G01 X5.2117 Y8.3162 F20.00
G01 X5.1770 Y8.3103 F20.00
G01 X5.1439 Y8.3007 F20.00
G01 X5.1127 Y8.2878 F20.00
G01 X5.0817 Y8.2707 F20.00
G01 X5.0539 Y8.2510 F20.00
G01 X5.0284 Y8.2282 F20.00
G01 X3.9584 Y7.1582 F20.00
G01 X2.1500 Y7.1582 F20.00
G01 X2.1500 Y7.7000 F20.00
G01 X2.1485 Y7.7047 F20.00
G01 X2.1445 Y7.7076 F20.00
G01 X0.4420 Y7.7080 F20.00
G01 X0.4388 Y7.7073 F20.00
G01 X0.4355 Y7.7047 F20.00
G01 X0.4340 Y7.7000 F20.00
G01 X0.4340 Y6.0000 F20.00
G01 X0.4347 Y5.9968 F20.00
G01 X0.4361 Y5.9946 F20.00
G01 X0.4388 Y5.9927 F20.00
G01 X0.4420 Y5.9920 F20.00
G00 Z2.0000
G00 X0.5188 Y10.7879
G01 F20.00
G01 Z-0.0200
G01 F20.00
G01 X0.4823 Y10.6997 F20.00
G01 X0.4556 Y10.6073 F20.00
G01 X0.4394 Y10.5119 F20.00
G01 X0.4340 Y10.4160 F20.00
G01 X0.4394 Y10.3201 F20.00
G01 X0.4556 Y10.2248 F20.00
G01 X0.4823 Y10.1323 F20.00
G01 X0.5188 Y10.0441 F20.00
G01 X0.5654 Y9.9597 F20.00
G01 X0.6209 Y9.8814 F20.00
G01 X0.6856 Y9.8090 F20.00
G01 X0.7571 Y9.7451 F20.00
G01 X0.8357 Y9.6894 F20.00
G01 X0.9193 Y9.6432 F20.00
G01 X1.0083 Y9.6063 F20.00
G01 X1.1008 Y9.5796 F20.00
G01 X1.1955 Y9.5635 F20.00
G01 X1.2924 Y9.5580 F20.00
G01 X1.3879 Y9.5634 F20.00
G01 X1.4832 Y9.5796 F20.00
G01 X1.5757 Y9.6063 F20.00
G01 X1.6639 Y9.6428 F20.00
G01 X1.7483 Y9.6894 F20.00
G01 X1.8266 Y9.7449 F20.00
G01 X1.8990 Y9.8096 F20.00
G01 X1.9629 Y9.8811 F20.00
G01 X2.0186 Y9.9597 F20.00
G01 X2.0648 Y10.0433 F20.00
G01 X2.0916 Y10.1079 F20.00
G01 X3.8949 Y10.1079 F20.00
G01 X5.0079 Y8.9948 F20.00
G01 X5.0334 Y8.9720 F20.00
G01 X5.0617 Y8.9520 F20.00
G01 X5.0914 Y8.9356 F20.00
G01 X5.1233 Y8.9223 F20.00
G01 X5.1574 Y8.9125 F20.00
G01 X5.1912 Y8.9068 F20.00
G01 X5.2255 Y8.9049 F20.00
G01 X12.3445 Y8.9049 F20.00
G01 X12.3795 Y8.9069 F20.00
G01 X12.4134 Y8.9127 F20.00
G01 X12.4459 Y8.9220 F20.00
G01 X12.4786 Y8.9356 F20.00
G01 X12.5083 Y8.9520 F20.00
G01 X12.5363 Y8.9718 F20.00
G01 X12.5621 Y8.9948 F20.00
G01 X13.6751 Y10.1079 F20.00
G01 X13.9544 Y10.1079 F20.00
G01 X13.9812 Y10.0433 F20.00
G01 X14.0274 Y9.9597 F20.00
G01 X14.0831 Y9.8811 F20.00
G01 X14.1470 Y9.8096 F20.00
G01 X14.2194 Y9.7449 F20.00
G01 X14.2977 Y9.6894 F20.00
G01 X14.3821 Y9.6428 F20.00
G01 X14.4710 Y9.6060 F20.00
G01 X14.5628 Y9.5796 F20.00
G01 X14.6575 Y9.5635 F20.00
G01 X14.7540 Y9.5580 F20.00
G01 X14.8505 Y9.5635 F20.00
G01 X14.9452 Y9.5796 F20.00
G01 X15.0370 Y9.6060 F20.00
G01 X15.1267 Y9.6432 F20.00
G01 X15.2103 Y9.6894 F20.00
G01 X15.2889 Y9.7451 F20.00
G01 X15.3607 Y9.8093 F20.00
G01 X15.4245 Y9.8807 F20.00
G01 X15.4807 Y9.9599 F20.00
G01 X15.5272 Y10.0441 F20.00
G01 X15.5637 Y10.1323 F20.00
G01 X15.5906 Y10.2255 F20.00
G01 X15.6066 Y10.3201 F20.00
G01 X15.6120 Y10.4160 F20.00
G01 X15.6066 Y10.5119 F20.00
G01 X15.5904 Y10.6073 F20.00
G01 X15.5637 Y10.6997 F20.00
G01 X15.5272 Y10.7879 F20.00
G01 X15.4806 Y10.8723 F20.00
G01 X15.4251 Y10.9506 F20.00
G01 X15.3604 Y11.0230 F20.00
G01 X15.2889 Y11.0869 F20.00
G01 X15.2103 Y11.1426 F20.00
G01 X15.1267 Y11.1888 F20.00
G01 X15.0377 Y11.2257 F20.00
G01 X14.9452 Y11.2524 F20.00
G01 X14.8499 Y11.2686 F20.00
G01 X14.7540 Y11.2740 F20.00
G01 X14.6581 Y11.2686 F20.00
G01 X14.5628 Y11.2524 F20.00
G01 X14.4702 Y11.2257 F20.00
G01 X14.3821 Y11.1892 F20.00
G01 X14.2979 Y11.1427 F20.00
G01 X14.2191 Y11.0869 F20.00
G01 X14.1473 Y11.0227 F20.00
G01 X14.0829 Y10.9506 F20.00
G01 X14.0273 Y10.8721 F20.00
G01 X13.9812 Y10.7887 F20.00
G01 X13.9544 Y10.7242 F20.00
G01 X13.5475 Y10.7242 F20.00
G01 X13.5132 Y10.7222 F20.00
G01 X13.4786 Y10.7163 F20.00
G01 X13.4453 Y10.7067 F20.00
G01 X13.4134 Y10.6934 F20.00
G01 X13.3837 Y10.6770 F20.00
G01 X13.3557 Y10.6572 F20.00
G01 X13.3296 Y10.6339 F20.00
G01 X12.2169 Y9.5212 F20.00
G01 X6.6042 Y9.5212 F20.00
G01 X6.6042 Y9.7480 F20.00
G01 X6.7960 Y9.7480 F20.00
G01 X6.7992 Y9.7487 F20.00
G01 X6.8014 Y9.7501 F20.00
G01 X6.8029 Y9.7520 F20.00
G01 X6.8040 Y9.7552 F20.00
G01 X6.8040 Y11.2560 F20.00
G01 X6.8033 Y11.2593 F20.00
G01 X6.8007 Y11.2625 F20.00
G01 X6.7960 Y11.2640 F20.00
G01 X5.7952 Y11.2640 F20.00
G01 X5.7920 Y11.2629 F20.00
G01 X5.7901 Y11.2614 F20.00
G01 X5.7887 Y11.2593 F20.00
G01 X5.7880 Y11.2560 F20.00
G01 X5.7880 Y9.7552 F20.00
G01 X5.7891 Y9.7520 F20.00
G01 X5.7906 Y9.7501 F20.00
G01 X5.7928 Y9.7487 F20.00
G01 X5.7960 Y9.7480 F20.00
G01 X5.9878 Y9.7480 F20.00
G01 X5.9878 Y9.5212 F20.00
G01 X5.3531 Y9.5212 F20.00
G01 X4.3942 Y10.4801 F20.00
G01 X4.3942 Y11.3475 F20.00
G01 X4.5423 Y11.3475 F20.00
G01 X4.5669 Y11.3487 F20.00
G01 X4.5915 Y11.3524 F20.00
G01 X4.6153 Y11.3583 F20.00
G01 X4.6388 Y11.3667 F20.00
G01 X4.6613 Y11.3774 F20.00
G01 X4.6824 Y11.3902 F20.00
G01 X4.7021 Y11.4048 F20.00
G01 X4.7200 Y11.4210 F20.00
G01 X4.7367 Y11.4394 F20.00
G01 X4.7516 Y11.4594 F20.00
G01 X4.7644 Y11.4808 F20.00
G01 X4.7750 Y11.5033 F20.00
G01 X4.7832 Y11.5262 F20.00
G01 X4.7891 Y11.5498 F20.00
G01 X4.7928 Y11.5746 F20.00
G01 X4.7940 Y11.5993 F20.00
G01 X4.7940 Y12.0868 F20.00
G01 X4.7927 Y12.1118 F20.00
G01 X4.7891 Y12.1360 F20.00
G01 X4.7832 Y12.1598 F20.00
G01 X4.7747 Y12.1835 F20.00
G01 X4.7644 Y12.2052 F20.00
G01 X4.7516 Y12.2266 F20.00
G01 X4.7367 Y12.2466 F20.00
G01 X4.7205 Y12.2645 F20.00
G01 X4.7016 Y12.2816 F20.00
G01 X4.6821 Y12.2961 F20.00
G01 X4.6613 Y12.3086 F20.00
G01 X4.6382 Y12.3195 F20.00
G01 X4.6153 Y12.3277 F20.00
G01 X4.5915 Y12.3336 F20.00
G01 X4.5669 Y12.3373 F20.00
G01 X4.5426 Y12.3385 F20.00
G01 X3.6297 Y12.3385 F20.00
G01 X3.6051 Y12.3373 F20.00
G01 X3.5803 Y12.3336 F20.00
G01 X3.5567 Y12.3277 F20.00
G01 X3.5338 Y12.3195 F20.00
G01 X3.5113 Y12.3089 F20.00
G01 X3.4899 Y12.2961 F20.00
G01 X3.4697 Y12.2811 F20.00
G01 X3.4517 Y12.2648 F20.00
G01 X3.4354 Y12.2468 F20.00
G01 X3.4204 Y12.2266 F20.00
G01 X3.4076 Y12.2051 F20.00
G01 X3.3972 Y12.1833 F20.00
G01 X3.3887 Y12.1595 F20.00
G01 X3.3829 Y12.1360 F20.00
G01 X3.3793 Y12.1118 F20.00
G01 X3.3780 Y12.0871 F20.00
G01 X3.3780 Y11.5993 F20.00
G01 X3.3792 Y11.5746 F20.00
G01 X3.3829 Y11.5498 F20.00
G01 X3.3888 Y11.5262 F20.00
G01 X3.3973 Y11.5026 F20.00
G01 X3.4076 Y11.4808 F20.00
G01 X3.4202 Y11.4597 F20.00
G01 X3.4349 Y11.4399 F20.00
G01 X3.4517 Y11.4212 F20.00
G01 X3.4699 Y11.4048 F20.00
G01 X3.4899 Y11.3899 F20.00
G01 X3.5113 Y11.3771 F20.00
G01 X3.5332 Y11.3667 F20.00
G01 X3.5567 Y11.3583 F20.00
G01 X3.5805 Y11.3524 F20.00
G01 X3.6051 Y11.3487 F20.00
G01 X3.6297 Y11.3475 F20.00
G01 X3.7778 Y11.3475 F20.00
G01 X3.7778 Y10.7242 F20.00
G01 X2.0916 Y10.7242 F20.00
G01 X2.0648 Y10.7887 F20.00
G01 X2.0187 Y10.8721 F20.00
G01 X1.9629 Y10.9509 F20.00
G01 X1.8984 Y11.0230 F20.00
G01 X1.8269 Y11.0869 F20.00
G01 X1.7489 Y11.1422 F20.00
G01 X1.6647 Y11.1888 F20.00
G01 X1.5750 Y11.2260 F20.00
G01 X1.4832 Y11.2524 F20.00
G01 X1.3885 Y11.2685 F20.00
G01 X1.2920 Y11.2740 F20.00
G01 X1.1961 Y11.2686 F20.00
G01 X1.1006 Y11.2524 F20.00
G01 X1.0083 Y11.2257 F20.00
G01 X0.9201 Y11.1892 F20.00
G01 X0.8357 Y11.1426 F20.00
G01 X0.7567 Y11.0865 F20.00
G01 X0.6853 Y11.0227 F20.00
G01 X0.6215 Y10.9513 F20.00
G01 X0.5654 Y10.8723 F20.00
G01 X0.5188 Y10.7879 F20.00
G00 Z2.0000
G00 X0.5188 Y13.3279
G01 F20.00
G01 Z-0.0200
G01 F20.00
G01 X0.4823 Y13.2397 F20.00
G01 X0.4556 Y13.1473 F20.00
G01 X0.4394 Y13.0519 F20.00
G01 X0.4340 Y12.9560 F20.00
G01 X0.4394 Y12.8601 F20.00
G01 X0.4556 Y12.7648 F20.00
G01 X0.4823 Y12.6723 F20.00
G01 X0.5192 Y12.5833 F20.00
G01 X0.5654 Y12.4997 F20.00
G01 X0.6211 Y12.4211 F20.00
G01 X0.6853 Y12.3493 F20.00
G01 X0.7574 Y12.2849 F20.00
G01 X0.8357 Y12.2294 F20.00
G01 X0.9193 Y12.1832 F20.00
G01 X1.0082 Y12.1463 F20.00
G01 X1.1008 Y12.1196 F20.00
G01 X1.1955 Y12.1035 F20.00
G01 X1.2924 Y12.0980 F20.00
G01 X1.3879 Y12.1034 F20.00
G01 X1.4834 Y12.1196 F20.00
G01 X1.5757 Y12.1463 F20.00
G01 X1.6639 Y12.1828 F20.00
G01 X1.7483 Y12.2294 F20.00
G01 X1.8266 Y12.2849 F20.00
G01 X1.8990 Y12.3496 F20.00
G01 X1.9629 Y12.4211 F20.00
G01 X2.0186 Y12.4997 F20.00
G01 X2.0648 Y12.5833 F20.00
G01 X2.1017 Y12.6723 F20.00
G01 X2.1284 Y12.7648 F20.00
G01 X2.1341 Y12.7979 F20.00
G01 X2.6235 Y12.7979 F20.00
G01 X2.7677 Y12.6537 F20.00
G01 X2.7810 Y12.6419 F20.00
G01 X2.7958 Y12.6314 F20.00
G01 X2.8113 Y12.6229 F20.00
G01 X2.8270 Y12.6164 F20.00
G01 X2.8448 Y12.6113 F20.00
G01 X2.8620 Y12.6084 F20.00
G01 X2.8791 Y12.6074 F20.00
G01 X5.4830 Y12.6074 F20.00
G01 X5.5005 Y12.6084 F20.00
G01 X5.5185 Y12.6115 F20.00
G01 X5.5355 Y12.6164 F20.00
G01 X5.5512 Y12.6229 F20.00
G01 X5.5675 Y12.6319 F20.00
G01 X5.5815 Y12.6419 F20.00
G01 X5.5948 Y12.6537 F20.00
G01 X6.4078 Y13.4667 F20.00
G01 X6.4196 Y13.4800 F20.00
G01 X6.4299 Y13.4945 F20.00
G01 X6.4382 Y13.5095 F20.00
G01 X6.4451 Y13.5260 F20.00
G01 X6.4502 Y13.5438 F20.00
G01 X6.4531 Y13.5610 F20.00
G01 X6.4541 Y13.5785 F20.00
G01 X6.4541 Y14.6480 F20.00
G01 X6.7960 Y14.6480 F20.00
G01 X6.7992 Y14.6487 F20.00
G01 X6.8014 Y14.6501 F20.00
G01 X6.8029 Y14.6520 F20.00
G01 X6.8040 Y14.6552 F20.00
G01 X6.8040 Y16.1560 F20.00
G01 X6.8033 Y16.1593 F20.00
G01 X6.8007 Y16.1625 F20.00
G01 X6.7960 Y16.1640 F20.00
G01 X5.7960 Y16.1640 F20.00
G01 X5.7913 Y16.1625 F20.00
G01 X5.7887 Y16.1593 F20.00
G01 X5.7880 Y16.1560 F20.00
G01 X5.7880 Y14.6552 F20.00
G01 X5.7891 Y14.6520 F20.00
G01 X5.7906 Y14.6501 F20.00
G01 X5.7928 Y14.6487 F20.00
G01 X5.7960 Y14.6480 F20.00
G01 X6.1379 Y14.6480 F20.00
G01 X6.1379 Y13.6440 F20.00
G01 X5.4175 Y12.9236 F20.00
G01 X2.9450 Y12.9236 F20.00
G01 X2.8008 Y13.0678 F20.00
G01 X2.7879 Y13.0793 F20.00
G01 X2.7730 Y13.0899 F20.00
G01 X2.7580 Y13.0982 F20.00
G01 X2.7415 Y13.1051 F20.00
G01 X2.7245 Y13.1100 F20.00
G01 X2.7065 Y13.1131 F20.00
G01 X2.6890 Y13.1141 F20.00
G01 X2.1341 Y13.1141 F20.00
G01 X2.1284 Y13.1473 F20.00
G01 X2.1020 Y13.2390 F20.00
G01 X2.0648 Y13.3287 F20.00
G01 X2.0186 Y13.4123 F20.00
G01 X1.9631 Y13.4906 F20.00
G01 X1.8984 Y13.5630 F20.00
G01 X1.8269 Y13.6269 F20.00
G01 X1.7489 Y13.6822 F20.00
G01 X1.6639 Y13.7292 F20.00
G01 X1.5757 Y13.7657 F20.00
G01 X1.4834 Y13.7924 F20.00
G01 X1.3879 Y13.8086 F20.00
G01 X1.2920 Y13.8140 F20.00
G01 X1.1964 Y13.8086 F20.00
G01 X1.1008 Y13.7924 F20.00
G01 X1.0082 Y13.7657 F20.00
G01 X0.9201 Y13.7292 F20.00
G01 X0.8359 Y13.6827 F20.00
G01 X0.7567 Y13.6265 F20.00
G01 X0.6853 Y13.5627 F20.00
G01 X0.6215 Y13.4913 F20.00
G01 X0.5654 Y13.4123 F20.00
G01 X0.5188 Y13.3279 F20.00
G00 Z2.0000
G00 X0.4420 Y14.6380
G01 F20.00
G01 Z-0.0200
G01 F20.00
G01 X2.1437 Y14.6382 F20.00
G01 X2.1479 Y14.6407 F20.00
G01 X2.1493 Y14.6428 F20.00
G01 X2.1500 Y14.6460 F20.00
G01 X2.1500 Y15.1879 F20.00
G01 X3.7778 Y15.1879 F20.00
G01 X3.7778 Y14.2135 F20.00
G01 X3.6297 Y14.2135 F20.00
G01 X3.6051 Y14.2123 F20.00
G01 X3.5805 Y14.2086 F20.00
G01 X3.5570 Y14.2028 F20.00
G01 X3.5332 Y14.1943 F20.00
G01 X3.5113 Y14.1839 F20.00
G01 X3.4899 Y14.1711 F20.00
G01 X3.4699 Y14.1563 F20.00
G01 X3.4517 Y14.1398 F20.00
G01 X3.4353 Y14.1216 F20.00
G01 X3.4204 Y14.1016 F20.00
G01 X3.4076 Y14.0802 F20.00
G01 X3.3972 Y14.0583 F20.00
G01 X3.3888 Y14.0348 F20.00
G01 X3.3829 Y14.0110 F20.00
G01 X3.3792 Y13.9864 F20.00
G01 X3.3780 Y13.9621 F20.00
G01 X3.3780 Y13.4743 F20.00
G01 X3.3792 Y13.4496 F20.00
G01 X3.3829 Y13.4250 F20.00
G01 X3.3888 Y13.4012 F20.00
G01 X3.3972 Y13.3777 F20.00
G01 X3.4079 Y13.3552 F20.00
G01 X3.4204 Y13.3344 F20.00
G01 X3.4349 Y13.3149 F20.00
G01 X3.4517 Y13.2962 F20.00
G01 X3.4704 Y13.2794 F20.00
G01 X3.4899 Y13.2649 F20.00
G01 X3.5107 Y13.2524 F20.00
G01 X3.5332 Y13.2417 F20.00
G01 X3.5570 Y13.2332 F20.00
G01 X3.5805 Y13.2274 F20.00
G01 X3.6047 Y13.2238 F20.00
G01 X3.6297 Y13.2225 F20.00
G01 X4.5423 Y13.2225 F20.00
G01 X4.5669 Y13.2237 F20.00
G01 X4.5915 Y13.2274 F20.00
G01 X4.6150 Y13.2332 F20.00
G01 X4.6388 Y13.2417 F20.00
G01 X4.6607 Y13.2521 F20.00
G01 X4.6818 Y13.2647 F20.00
G01 X4.7021 Y13.2798 F20.00
G01 X4.7203 Y13.2962 F20.00
G01 X4.7366 Y13.3142 F20.00
G01 X4.7516 Y13.3344 F20.00
G01 X4.7644 Y13.3558 F20.00
G01 X4.7747 Y13.3776 F20.00
G01 X4.7832 Y13.4012 F20.00
G01 X4.7891 Y13.4250 F20.00
G01 X4.7927 Y13.4492 F20.00
G01 X4.7940 Y13.4743 F20.00
G01 X4.7940 Y13.9618 F20.00
G01 X4.7928 Y13.9864 F20.00
G01 X4.7891 Y14.0113 F20.00
G01 X4.7832 Y14.0348 F20.00
G01 X4.7750 Y14.0577 F20.00
G01 X4.7644 Y14.0802 F20.00
G01 X4.7516 Y14.1016 F20.00
G01 X4.7367 Y14.1216 F20.00
G01 X4.7200 Y14.1400 F20.00
G01 X4.7021 Y14.1563 F20.00
G01 X4.6824 Y14.1709 F20.00
G01 X4.6613 Y14.1836 F20.00
G01 X4.6388 Y14.1943 F20.00
G01 X4.6153 Y14.2027 F20.00
G01 X4.5915 Y14.2086 F20.00
G01 X4.5669 Y14.2123 F20.00
G01 X4.5423 Y14.2135 F20.00
G01 X4.3942 Y14.2135 F20.00
G01 X4.3942 Y15.3684 F20.00
G01 X5.3736 Y16.3479 F20.00
G01 X9.1878 Y16.3479 F20.00
G01 X9.1878 Y16.1640 F20.00
G01 X8.9960 Y16.1640 F20.00
G01 X8.9928 Y16.1633 F20.00
G01 X8.9906 Y16.1620 F20.00
G01 X8.9891 Y16.1600 F20.00
G01 X8.9880 Y16.1568 F20.00
G01 X8.9880 Y14.6560 F20.00
G01 X8.9887 Y14.6528 F20.00
G01 X8.9906 Y14.6501 F20.00
G01 X8.9928 Y14.6487 F20.00
G01 X8.9960 Y14.6480 F20.00
G01 X9.9960 Y14.6480 F20.00
G01 X10.0007 Y14.6495 F20.00
G01 X10.0033 Y14.6528 F20.00
G01 X10.0040 Y14.6560 F20.00
G01 X10.0040 Y16.1568 F20.00
G01 X10.0029 Y16.1600 F20.00
G01 X10.0014 Y16.1620 F20.00
G01 X9.9992 Y16.1633 F20.00
G01 X9.9960 Y16.1640 F20.00
G01 X9.8042 Y16.1640 F20.00
G01 X9.8042 Y16.3479 F20.00
G01 X12.0164 Y16.3479 F20.00
G01 X13.0861 Y15.2781 F20.00
G01 X13.1119 Y15.2550 F20.00
G01 X13.1402 Y15.2350 F20.00
G01 X13.1699 Y15.2186 F20.00
G01 X13.2019 Y15.2053 F20.00
G01 X13.2351 Y15.1957 F20.00
G01 X13.2699 Y15.1898 F20.00
G01 X13.3040 Y15.1879 F20.00
G01 X13.8960 Y15.1879 F20.00
G01 X13.8960 Y14.6460 F20.00
G01 X13.8967 Y14.6428 F20.00
G01 X13.8981 Y14.6407 F20.00
G01 X13.9008 Y14.6387 F20.00
G01 X13.9040 Y14.6380 F20.00
G01 X15.6040 Y14.6380 F20.00
G01 X15.6072 Y14.6387 F20.00
G01 X15.6099 Y14.6407 F20.00
G01 X15.6113 Y14.6428 F20.00
G01 X15.6120 Y14.6460 F20.00
G01 X15.6120 Y16.3468 F20.00
G01 X15.6109 Y16.3500 F20.00
G01 X15.6094 Y16.3520 F20.00
G01 X15.6072 Y16.3533 F20.00
G01 X15.6040 Y16.3540 F20.00
G01 X13.9023 Y16.3538 F20.00
G01 X13.8981 Y16.3514 F20.00
G01 X13.8967 Y16.3493 F20.00
G01 X13.8960 Y16.3460 F20.00
G01 X13.8960 Y15.8042 F20.00
G01 X13.4316 Y15.8042 F20.00
G01 X12.3616 Y16.8742 F20.00
G01 X12.3358 Y16.8972 F20.00
G01 X12.3078 Y16.9170 F20.00
G01 X12.2781 Y16.9334 F20.00
G01 X12.2453 Y16.9470 F20.00
G01 X12.2129 Y16.9563 F20.00
G01 X12.1789 Y16.9622 F20.00
G01 X12.1440 Y16.9642 F20.00
G01 X5.2460 Y16.9642 F20.00
G01 X5.2117 Y16.9622 F20.00
G01 X5.1770 Y16.9563 F20.00
G01 X5.1439 Y16.9467 F20.00
G01 X5.1127 Y16.9338 F20.00
G01 X5.0817 Y16.9167 F20.00
G01 X5.0539 Y16.8970 F20.00
G01 X5.0284 Y16.8742 F20.00
G01 X3.9584 Y15.8042 F20.00
G01 X2.1500 Y15.8042 F20.00
G01 X2.1500 Y16.3460 F20.00
G01 X2.1485 Y16.3507 F20.00
G01 X2.1445 Y16.3536 F20.00
G01 X0.4420 Y16.3540 F20.00
G01 X0.4388 Y16.3533 F20.00
G01 X0.4355 Y16.3507 F20.00
G01 X0.4340 Y16.3460 F20.00
G01 X0.4340 Y14.6460 F20.00
G01 X0.4347 Y14.6428 F20.00
G01 X0.4361 Y14.6407 F20.00
G01 X0.4388 Y14.6387 F20.00
G01 X0.4420 Y14.6380 F20.00
G00 Z2.0000
G00 X0.5188 Y19.4339
G01 F20.00
G01 Z-0.0200
G01 F20.00
G01 X0.4823 Y19.3457 F20.00
G01 X0.4556 Y19.2533 F20.00
G01 X0.4394 Y19.1579 F20.00
G01 X0.4340 Y19.0620 F20.00
G01 X0.4394 Y18.9661 F20.00
G01 X0.4556 Y18.8708 F20.00
G01 X0.4823 Y18.7783 F20.00
G01 X0.5188 Y18.6901 F20.00
G01 X0.5654 Y18.6057 F20.00
G01 X0.6209 Y18.5274 F20.00
G01 X0.6856 Y18.4550 F20.00
G01 X0.7571 Y18.3911 F20.00
G01 X0.8357 Y18.3354 F20.00
G01 X0.9193 Y18.2892 F20.00
G01 X1.0083 Y18.2523 F20.00
G01 X1.1008 Y18.2256 F20.00
G01 X1.1955 Y18.2095 F20.00
G01 X1.2924 Y18.2040 F20.00
G01 X1.3879 Y18.2094 F20.00
G01 X1.4832 Y18.2256 F20.00
G01 X1.5757 Y18.2523 F20.00
G01 X1.6639 Y18.2888 F20.00
G01 X1.7483 Y18.3354 F20.00
G01 X1.8266 Y18.3909 F20.00
G01 X1.8990 Y18.4556 F20.00
G01 X1.9629 Y18.5271 F20.00
G01 X2.0186 Y18.6057 F20.00
G01 X2.0648 Y18.6893 F20.00
G01 X2.0916 Y18.7539 F20.00
G01 X3.8949 Y18.7539 F20.00
G01 X5.0079 Y17.6408 F20.00
G01 X5.0334 Y17.6180 F20.00
G01 X5.0617 Y17.5980 F20.00
G01 X5.0914 Y17.5816 F20.00
G01 X5.1233 Y17.5683 F20.00
G01 X5.1574 Y17.5585 F20.00
G01 X5.1912 Y17.5528 F20.00
G01 X5.2255 Y17.5509 F20.00
G01 X12.3445 Y17.5509 F20.00
G01 X12.3795 Y17.5529 F20.00
G01 X12.4134 Y17.5587 F20.00
G01 X12.4459 Y17.5680 F20.00
G01 X12.4786 Y17.5816 F20.00
G01 X12.5083 Y17.5980 F20.00
G01 X12.5363 Y17.6178 F20.00
G01 X12.5621 Y17.6408 F20.00
G01 X13.6751 Y18.7539 F20.00
G01 X13.9544 Y18.7539 F20.00
G01 X13.9812 Y18.6893 F20.00
G01 X14.0274 Y18.6057 F20.00
G01 X14.0831 Y18.5271 F20.00
G01 X14.1470 Y18.4556 F20.00
G01 X14.2194 Y18.3909 F20.00
G01 X14.2977 Y18.3354 F20.00
G01 X14.3821 Y18.2888 F20.00
G01 X14.4710 Y18.2520 F20.00
G01 X14.5628 Y18.2256 F20.00
G01 X14.6575 Y18.2095 F20.00
G01 X14.7540 Y18.2040 F20.00
G01 X14.8505 Y18.2095 F20.00
G01 X14.9452 Y18.2256 F20.00
G01 X15.0370 Y18.2520 F20.00
G01 X15.1267 Y18.2892 F20.00
G01 X15.2103 Y18.3354 F20.00
G01 X15.2889 Y18.3911 F20.00
G01 X15.3607 Y18.4553 F20.00
G01 X15.4245 Y18.5267 F20.00
G01 X15.4807 Y18.6059 F20.00
G01 X15.5272 Y18.6901 F20.00
G01 X15.5637 Y18.7783 F20.00
G01 X15.5906 Y18.8715 F20.00
G01 X15.6066 Y18.9661 F20.00
G01 X15.6120 Y19.0620 F20.00
G01 X15.6066 Y19.1579 F20.00
G01 X15.5904 Y19.2533 F20.00
G01 X15.5637 Y19.3457 F20.00
G01 X15.5272 Y19.4339 F20.00
G01 X15.4806 Y19.5184 F20.00
G01 X15.4251 Y19.5966 F20.00
G01 X15.3604 Y19.6690 F20.00
G01 X15.2889 Y19.7329 F20.00
G01 X15.2103 Y19.7886 F20.00
G01 X15.1267 Y19.8348 F20.00
G01 X15.0377 Y19.8717 F20.00
G01 X14.9452 Y19.8984 F20.00
G01 X14.8499 Y19.9146 F20.00
G01 X14.7540 Y19.9200 F20.00
G01 X14.6581 Y19.9146 F20.00
G01 X14.5628 Y19.8984 F20.00
G01 X14.4702 Y19.8717 F20.00
G01 X14.3821 Y19.8352 F20.00
G01 X14.2979 Y19.7887 F20.00
G01 X14.2191 Y19.7329 F20.00
G01 X14.1473 Y19.6687 F20.00
G01 X14.0829 Y19.5966 F20.00
G01 X14.0273 Y19.5181 F20.00
G01 X13.9812 Y19.4347 F20.00
G01 X13.9544 Y19.3702 F20.00
G01 X13.5475 Y19.3702 F20.00
G01 X13.5132 Y19.3682 F20.00
G01 X13.4786 Y19.3624 F20.00
G01 X13.4453 Y19.3527 F20.00
G01 X13.4134 Y19.3394 F20.00
G01 X13.3837 Y19.3230 F20.00
G01 X13.3557 Y19.3032 F20.00
G01 X13.3296 Y19.2799 F20.00
G01 X12.2169 Y18.1672 F20.00
G01 X6.6042 Y18.1672 F20.00
G01 X6.6042 Y18.3940 F20.00
G01 X6.7960 Y18.3940 F20.00
G01 X6.7992 Y18.3947 F20.00
G01 X6.8014 Y18.3961 F20.00
G01 X6.8029 Y18.3980 F20.00
G01 X6.8040 Y18.4012 F20.00
G01 X6.8040 Y19.9020 F20.00
G01 X6.8033 Y19.9053 F20.00
G01 X6.8007 Y19.9085 F20.00
G01 X6.7960 Y19.9100 F20.00
G01 X5.7952 Y19.9100 F20.00
G01 X5.7920 Y19.9089 F20.00
G01 X5.7901 Y19.9074 F20.00
G01 X5.7887 Y19.9053 F20.00
G01 X5.7880 Y19.9020 F20.00
G01 X5.7880 Y18.4012 F20.00
G01 X5.7891 Y18.3980 F20.00
G01 X5.7906 Y18.3961 F20.00
G01 X5.7928 Y18.3947 F20.00
G01 X5.7960 Y18.3940 F20.00
G01 X5.9878 Y18.3940 F20.00
G01 X5.9878 Y18.1672 F20.00
G01 X5.3531 Y18.1672 F20.00
G01 X4.3942 Y19.1261 F20.00
G01 X4.3942 Y19.9935 F20.00
G01 X4.5423 Y19.9935 F20.00
G01 X4.5669 Y19.9947 F20.00
G01 X4.5915 Y19.9984 F20.00
G01 X4.6153 Y20.0043 F20.00
G01 X4.6388 Y20.0128 F20.00
G01 X4.6613 Y20.0234 F20.00
G01 X4.6824 Y20.0362 F20.00
G01 X4.7021 Y20.0508 F20.00
G01 X4.7200 Y20.0670 F20.00
G01 X4.7367 Y20.0854 F20.00
G01 X4.7516 Y20.1054 F20.00
G01 X4.7644 Y20.1268 F20.00
G01 X4.7750 Y20.1493 F20.00
G01 X4.7832 Y20.1722 F20.00
G01 X4.7891 Y20.1958 F20.00
G01 X4.7928 Y20.2206 F20.00
G01 X4.7940 Y20.2453 F20.00
G01 X4.7940 Y20.7328 F20.00
G01 X4.7927 Y20.7578 F20.00
G01 X4.7891 Y20.7820 F20.00
G01 X4.7832 Y20.8058 F20.00
G01 X4.7747 Y20.8295 F20.00
G01 X4.7644 Y20.8512 F20.00
G01 X4.7516 Y20.8726 F20.00
G01 X4.7367 Y20.8926 F20.00
G01 X4.7205 Y20.9105 F20.00
G01 X4.7016 Y20.9276 F20.00
G01 X4.6821 Y20.9421 F20.00
G01 X4.6613 Y20.9546 F20.00
G01 X4.6382 Y20.9655 F20.00
G01 X4.6153 Y20.9737 F20.00
G01 X4.5915 Y20.9796 F20.00
G01 X4.5669 Y20.9833 F20.00
G01 X4.5426 Y20.9845 F20.00
G01 X3.6297 Y20.9845 F20.00
G01 X3.6051 Y20.9833 F20.00
G01 X3.5803 Y20.9796 F20.00
G01 X3.5567 Y20.9737 F20.00
G01 X3.5338 Y20.9655 F20.00
G01 X3.5113 Y20.9549 F20.00
G01 X3.4899 Y20.9421 F20.00
G01 X3.4697 Y20.9271 F20.00
G01 X3.4517 Y20.9108 F20.00
G01 X3.4354 Y20.8928 F20.00
G01 X3.4204 Y20.8726 F20.00
G01 X3.4076 Y20.8511 F20.00
G01 X3.3972 Y20.8293 F20.00
G01 X3.3887 Y20.8055 F20.00
G01 X3.3829 Y20.7820 F20.00
G01 X3.3793 Y20.7578 F20.00
G01 X3.3780 Y20.7332 F20.00
G01 X3.3780 Y20.2453 F20.00
G01 X3.3792 Y20.2206 F20.00
G01 X3.3829 Y20.1958 F20.00
G01 X3.3888 Y20.1722 F20.00
G01 X3.3973 Y20.1486 F20.00
G01 X3.4076 Y20.1268 F20.00
G01 X3.4202 Y20.1057 F20.00
G01 X3.4349 Y20.0859 F20.00
G01 X3.4517 Y20.0672 F20.00
G01 X3.4699 Y20.0508 F20.00
G01 X3.4899 Y20.0359 F20.00
G01 X3.5113 Y20.0231 F20.00
G01 X3.5332 Y20.0128 F20.00
G01 X3.5567 Y20.0043 F20.00
G01 X3.5805 Y19.9984 F20.00
G01 X3.6051 Y19.9947 F20.00
G01 X3.6297 Y19.9935 F20.00
G01 X3.7778 Y19.9935 F20.00
G01 X3.7778 Y19.3702 F20.00
G01 X2.0916 Y19.3702 F20.00
G01 X2.0648 Y19.4347 F20.00
G01 X2.0187 Y19.5181 F20.00
G01 X1.9629 Y19.5969 F20.00
G01 X1.8984 Y19.6690 F20.00
G01 X1.8269 Y19.7329 F20.00
G01 X1.7489 Y19.7883 F20.00
G01 X1.6647 Y19.8348 F20.00
G01 X1.5750 Y19.8720 F20.00
G01 X1.4832 Y19.8984 F20.00
G01 X1.3885 Y19.9146 F20.00
G01 X1.2920 Y19.9200 F20.00
G01 X1.1961 Y19.9146 F20.00
G01 X1.1006 Y19.8984 F20.00
G01 X1.0083 Y19.8717 F20.00
G01 X0.9201 Y19.8352 F20.00
G01 X0.8357 Y19.7886 F20.00
G01 X0.7567 Y19.7325 F20.00
G01 X0.6853 Y19.6687 F20.00
G01 X0.6215 Y19.5973 F20.00
G01 X0.5654 Y19.5184 F20.00
G01 X0.5188 Y19.4339 F20.00
G00 Z2.0000
G00 X0.5188 Y21.9739
G01 F20.00
G01 Z-0.0200
G01 F20.00
G01 X0.4823 Y21.8857 F20.00
G01 X0.4556 Y21.7933 F20.00
G01 X0.4394 Y21.6979 F20.00
G01 X0.4340 Y21.6020 F20.00
G01 X0.4394 Y21.5061 F20.00
G01 X0.4556 Y21.4108 F20.00
G01 X0.4823 Y21.3183 F20.00
G01 X0.5192 Y21.2293 F20.00
G01 X0.5654 Y21.1457 F20.00
G01 X0.6211 Y21.0671 F20.00
G01 X0.6853 Y20.9953 F20.00
G01 X0.7574 Y20.9309 F20.00
G01 X0.8357 Y20.8754 F20.00
G01 X0.9193 Y20.8292 F20.00
G01 X1.0082 Y20.7923 F20.00
G01 X1.1008 Y20.7656 F20.00
G01 X1.1955 Y20.7495 F20.00
G01 X1.2924 Y20.7440 F20.00
G01 X1.3879 Y20.7494 F20.00
G01 X1.4834 Y20.7656 F20.00
G01 X1.5757 Y20.7923 F20.00
G01 X1.6639 Y20.8288 F20.00
G01 X1.7483 Y20.8754 F20.00
G01 X1.8266 Y20.9309 F20.00
G01 X1.8990 Y20.9956 F20.00
G01 X1.9629 Y21.0671 F20.00
G01 X2.0186 Y21.1457 F20.00
G01 X2.0648 Y21.2293 F20.00
G01 X2.1017 Y21.3183 F20.00
G01 X2.1284 Y21.4108 F20.00
G01 X2.1341 Y21.4439 F20.00
G01 X2.6235 Y21.4439 F20.00
G01 X2.7677 Y21.2997 F20.00
G01 X2.7810 Y21.2879 F20.00
G01 X2.7958 Y21.2774 F20.00
G01 X2.8113 Y21.2689 F20.00
G01 X2.8270 Y21.2624 F20.00
G01 X2.8448 Y21.2573 F20.00
G01 X2.8620 Y21.2544 F20.00
G01 X2.8791 Y21.2534 F20.00
G01 X5.4830 Y21.2534 F20.00
G01 X5.5005 Y21.2544 F20.00
G01 X5.5185 Y21.2575 F20.00
G01 X5.5355 Y21.2624 F20.00
G01 X5.5512 Y21.2689 F20.00
G01 X5.5675 Y21.2779 F20.00
G01 X5.5815 Y21.2879 F20.00
G01 X5.5948 Y21.2997 F20.00
G01 X6.4078 Y22.1127 F20.00
G01 X6.4196 Y22.1260 F20.00
G01 X6.4299 Y22.1405 F20.00
G01 X6.4382 Y22.1555 F20.00
G01 X6.4451 Y22.1720 F20.00
G01 X6.4502 Y22.1898 F20.00
G01 X6.4531 Y22.2070 F20.00
G01 X6.4541 Y22.2245 F20.00
G01 X6.4541 Y23.2940 F20.00
G01 X6.7960 Y23.2940 F20.00
G01 X6.7992 Y23.2947 F20.00
G01 X6.8014 Y23.2961 F20.00
G01 X6.8029 Y23.2980 F20.00
G01 X6.8040 Y23.3012 F20.00
G01 X6.8040 Y24.8020 F20.00
G01 X6.8033 Y24.8053 F20.00
G01 X6.8007 Y24.8085 F20.00
G01 X6.7960 Y24.8100 F20.00
G01 X5.7960 Y24.8100 F20.00
G01 X5.7913 Y24.8085 F20.00
G01 X5.7887 Y24.8053 F20.00
G01 X5.7880 Y24.8020 F20.00
G01 X5.7880 Y23.3012 F20.00
G01 X5.7891 Y23.2980 F20.00
G01 X5.7906 Y23.2961 F20.00
G01 X5.7928 Y23.2947 F20.00
G01 X5.7960 Y23.2940 F20.00
G01 X6.1379 Y23.2940 F20.00
G01 X6.1379 Y22.2900 F20.00
G01 X5.4175 Y21.5696 F20.00
G01 X2.9450 Y21.5696 F20.00
G01 X2.8008 Y21.7138 F20.00
G01 X2.7879 Y21.7253 F20.00
G01 X2.7730 Y21.7359 F20.00
G01 X2.7580 Y21.7442 F20.00
G01 X2.7415 Y21.7511 F20.00
G01 X2.7245 Y21.7560 F20.00
G01 X2.7065 Y21.7591 F20.00
G01 X2.6890 Y21.7601 F20.00
G01 X2.1341 Y21.7601 F20.00
G01 X2.1284 Y21.7933 F20.00
G01 X2.1020 Y21.8850 F20.00
G01 X2.0648 Y21.9747 F20.00
G01 X2.0186 Y22.0584 F20.00
G01 X1.9631 Y22.1366 F20.00
G01 X1.8984 Y22.2090 F20.00
G01 X1.8269 Y22.2729 F20.00
G01 X1.7489 Y22.3283 F20.00
G01 X1.6639 Y22.3752 F20.00
G01 X1.5757 Y22.4117 F20.00
G01 X1.4834 Y22.4384 F20.00
G01 X1.3879 Y22.4546 F20.00
G01 X1.2920 Y22.4600 F20.00
G01 X1.1964 Y22.4547 F20.00
G01 X1.1008 Y22.4384 F20.00
G01 X1.0082 Y22.4117 F20.00
G01 X0.9201 Y22.3752 F20.00
G01 X0.8359 Y22.3287 F20.00
G01 X0.7567 Y22.2725 F20.00
G01 X0.6853 Y22.2087 F20.00
G01 X0.6215 Y22.1373 F20.00
G01 X0.5654 Y22.0584 F20.00
G01 X0.5188 Y21.9739 F20.00
G00 Z2.0000
G00 X0.4420 Y23.2840
G01 F20.00
G01 Z-0.0200
G01 F20.00
G01 X2.1437 Y23.2842 F20.00
G01 X2.1479 Y23.2867 F20.00
G01 X2.1493 Y23.2888 F20.00
G01 X2.1500 Y23.2920 F20.00
G01 X2.1500 Y23.8339 F20.00
G01 X3.7778 Y23.8339 F20.00
G01 X3.7778 Y22.8595 F20.00
G01 X3.6297 Y22.8595 F20.00
G01 X3.6051 Y22.8583 F20.00
G01 X3.5805 Y22.8546 F20.00
G01 X3.5570 Y22.8488 F20.00
G01 X3.5332 Y22.8403 F20.00
G01 X3.5113 Y22.8299 F20.00
G01 X3.4899 Y22.8171 F20.00
G01 X3.4699 Y22.8023 F20.00
G01 X3.4517 Y22.7858 F20.00
G01 X3.4353 Y22.7676 F20.00
G01 X3.4204 Y22.7476 F20.00
G01 X3.4076 Y22.7262 F20.00
G01 X3.3972 Y22.7043 F20.00
G01 X3.3888 Y22.6808 F20.00
G01 X3.3829 Y22.6570 F20.00
G01 X3.3792 Y22.6324 F20.00
G01 X3.3780 Y22.6082 F20.00
G01 X3.3780 Y22.1203 F20.00
G01 X3.3792 Y22.0956 F20.00
G01 X3.3829 Y22.0710 F20.00
G01 X3.3888 Y22.0472 F20.00
G01 X3.3972 Y22.0237 F20.00
G01 X3.4079 Y22.0012 F20.00
G01 X3.4204 Y21.9804 F20.00
G01 X3.4349 Y21.9609 F20.00
G01 X3.4517 Y21.9422 F20.00
G01 X3.4704 Y21.9254 F20.00
G01 X3.4899 Y21.9109 F20.00
G01 X3.5107 Y21.8984 F20.00
G01 X3.5332 Y21.8878 F20.00
G01 X3.5570 Y21.8792 F20.00
G01 X3.5805 Y21.8734 F20.00
G01 X3.6047 Y21.8698 F20.00
G01 X3.6297 Y21.8685 F20.00
G01 X4.5423 Y21.8685 F20.00
G01 X4.5669 Y21.8697 F20.00
G01 X4.5915 Y21.8734 F20.00
G01 X4.6150 Y21.8792 F20.00
G01 X4.6388 Y21.8878 F20.00
G01 X4.6607 Y21.8981 F20.00
G01 X4.6818 Y21.9107 F20.00
G01 X4.7021 Y21.9258 F20.00
G01 X4.7203 Y21.9422 F20.00
G01 X4.7366 Y21.9603 F20.00
G01 X4.7516 Y21.9804 F20.00
G01 X4.7644 Y22.0018 F20.00
G01 X4.7747 Y22.0236 F20.00
G01 X4.7832 Y22.0472 F20.00
G01 X4.7891 Y22.0710 F20.00
G01 X4.7927 Y22.0952 F20.00
G01 X4.7940 Y22.1203 F20.00
G01 X4.7940 Y22.6078 F20.00
G01 X4.7928 Y22.6324 F20.00
G01 X4.7891 Y22.6573 F20.00
G01 X4.7832 Y22.6808 F20.00
G01 X4.7750 Y22.7037 F20.00
G01 X4.7644 Y22.7262 F20.00
G01 X4.7516 Y22.7476 F20.00
G01 X4.7367 Y22.7676 F20.00
G01 X4.7200 Y22.7860 F20.00
G01 X4.7021 Y22.8023 F20.00
G01 X4.6824 Y22.8169 F20.00
G01 X4.6613 Y22.8296 F20.00
G01 X4.6388 Y22.8403 F20.00
G01 X4.6153 Y22.8487 F20.00
G01 X4.5915 Y22.8546 F20.00
G01 X4.5669 Y22.8583 F20.00
G01 X4.5423 Y22.8595 F20.00
G01 X4.3942 Y22.8595 F20.00
G01 X4.3942 Y24.0144 F20.00
G01 X5.3736 Y24.9939 F20.00
G01 X9.1878 Y24.9939 F20.00
G01 X9.1878 Y24.8100 F20.00
G01 X8.9960 Y24.8100 F20.00
G01 X8.9928 Y24.8093 F20.00
G01 X8.9906 Y24.8080 F20.00
G01 X8.9891 Y24.8060 F20.00
G01 X8.9880 Y24.8028 F20.00
G01 X8.9880 Y23.3020 F20.00
G01 X8.9887 Y23.2988 F20.00
G01 X8.9906 Y23.2961 F20.00
G01 X8.9928 Y23.2947 F20.00
G01 X8.9960 Y23.2940 F20.00
G01 X9.9960 Y23.2940 F20.00
G01 X10.0007 Y23.2955 F20.00
G01 X10.0033 Y23.2988 F20.00
G01 X10.0040 Y23.3020 F20.00
G01 X10.0040 Y24.8028 F20.00
G01 X10.0029 Y24.8060 F20.00
G01 X10.0014 Y24.8080 F20.00
G01 X9.9992 Y24.8093 F20.00
G01 X9.9960 Y24.8100 F20.00
G01 X9.8042 Y24.8100 F20.00
G01 X9.8042 Y24.9939 F20.00
G01 X12.0164 Y24.9939 F20.00
G01 X13.0861 Y23.9241 F20.00
G01 X13.1119 Y23.9010 F20.00
G01 X13.1402 Y23.8810 F20.00
G01 X13.1699 Y23.8646 F20.00
G01 X13.2019 Y23.8513 F20.00
G01 X13.2351 Y23.8417 F20.00
G01 X13.2699 Y23.8358 F20.00
G01 X13.3040 Y23.8339 F20.00
G01 X13.8960 Y23.8339 F20.00
G01 X13.8960 Y23.2920 F20.00
G01 X13.8967 Y23.2888 F20.00
G01 X13.8981 Y23.2867 F20.00
G01 X13.9008 Y23.2847 F20.00
G01 X13.9040 Y23.2840 F20.00
G01 X15.6040 Y23.2840 F20.00
G01 X15.6072 Y23.2847 F20.00
G01 X15.6099 Y23.2867 F20.00
G01 X15.6113 Y23.2888 F20.00
G01 X15.6120 Y23.2920 F20.00
G01 X15.6120 Y24.9928 F20.00
G01 X15.6109 Y24.9960 F20.00
G01 X15.6094 Y24.9980 F20.00
G01 X15.6072 Y24.9993 F20.00
G01 X15.6040 Y25.0000 F20.00
G01 X13.9023 Y24.9998 F20.00
G01 X13.8981 Y24.9974 F20.00
G01 X13.8967 Y24.9953 F20.00
G01 X13.8960 Y24.9920 F20.00
G01 X13.8960 Y24.4502 F20.00
G01 X13.4316 Y24.4502 F20.00
G01 X12.3616 Y25.5202 F20.00
G01 X12.3358 Y25.5432 F20.00
G01 X12.3078 Y25.5630 F20.00
G01 X12.2781 Y25.5794 F20.00
G01 X12.2453 Y25.5930 F20.00
G01 X12.2129 Y25.6024 F20.00
G01 X12.1789 Y25.6082 F20.00
G01 X12.1440 Y25.6102 F20.00
G01 X5.2460 Y25.6102 F20.00
G01 X5.2117 Y25.6082 F20.00
G01 X5.1770 Y25.6023 F20.00
G01 X5.1439 Y25.5927 F20.00
G01 X5.1127 Y25.5798 F20.00
G01 X5.0817 Y25.5627 F20.00
G01 X5.0539 Y25.5430 F20.00
G01 X5.0284 Y25.5202 F20.00
G01 X3.9584 Y24.4502 F20.00
G01 X2.1500 Y24.4502 F20.00
G01 X2.1500 Y24.9920 F20.00
G01 X2.1485 Y24.9967 F20.00
G01 X2.1445 Y24.9996 F20.00
G01 X0.4420 Y25.0000 F20.00
G01 X0.4388 Y24.9993 F20.00
G01 X0.4355 Y24.9967 F20.00
G01 X0.4340 Y24.9920 F20.00
G01 X0.4340 Y23.2920 F20.00
G01 X0.4347 Y23.2888 F20.00
G01 X0.4361 Y23.2867 F20.00
G01 X0.4388 Y23.2847 F20.00
G01 X0.4420 Y23.2840 F20.00
G00 Z2.0000
G00 X0.5188 Y28.0799
G01 F20.00
G01 Z-0.0200
G01 F20.00
G01 X0.4823 Y27.9917 F20.00
G01 X0.4556 Y27.8993 F20.00
G01 X0.4394 Y27.8039 F20.00
G01 X0.4340 Y27.7080 F20.00
G01 X0.4394 Y27.6121 F20.00
G01 X0.4556 Y27.5168 F20.00
G01 X0.4823 Y27.4243 F20.00
G01 X0.5188 Y27.3362 F20.00
G01 X0.5654 Y27.2517 F20.00
G01 X0.6209 Y27.1734 F20.00
G01 X0.6856 Y27.1010 F20.00
G01 X0.7571 Y27.0371 F20.00
G01 X0.8357 Y26.9814 F20.00
G01 X0.9193 Y26.9352 F20.00
G01 X1.0083 Y26.8983 F20.00
G01 X1.1008 Y26.8716 F20.00
G01 X1.1955 Y26.8555 F20.00
G01 X1.2924 Y26.8500 F20.00
G01 X1.3879 Y26.8554 F20.00
G01 X1.4832 Y26.8716 F20.00
G01 X1.5757 Y26.8983 F20.00
G01 X1.6639 Y26.9348 F20.00
G01 X1.7483 Y26.9814 F20.00
G01 X1.8266 Y27.0369 F20.00
G01 X1.8990 Y27.1016 F20.00
G01 X1.9629 Y27.1731 F20.00
G01 X2.0186 Y27.2517 F20.00
G01 X2.0648 Y27.3353 F20.00
G01 X2.0916 Y27.3999 F20.00
G01 X3.8949 Y27.3999 F20.00
G01 X5.0079 Y26.2868 F20.00
G01 X5.0334 Y26.2640 F20.00
G01 X5.0617 Y26.2440 F20.00
G01 X5.0914 Y26.2276 F20.00
G01 X5.1233 Y26.2143 F20.00
G01 X5.1574 Y26.2045 F20.00
G01 X5.1912 Y26.1988 F20.00
G01 X5.2255 Y26.1969 F20.00
G01 X12.3445 Y26.1969 F20.00
G01 X12.3795 Y26.1989 F20.00
G01 X12.4134 Y26.2047 F20.00
G01 X12.4459 Y26.2140 F20.00
G01 X12.4786 Y26.2276 F20.00
G01 X12.5083 Y26.2440 F20.00
G01 X12.5363 Y26.2638 F20.00
G01 X12.5621 Y26.2868 F20.00
G01 X13.6751 Y27.3999 F20.00
G01 X13.9544 Y27.3999 F20.00
G01 X13.9812 Y27.3353 F20.00
G01 X14.0274 Y27.2517 F20.00
G01 X14.0831 Y27.1731 F20.00
G01 X14.1470 Y27.1016 F20.00
G01 X14.2194 Y27.0369 F20.00
G01 X14.2977 Y26.9814 F20.00
G01 X14.3821 Y26.9348 F20.00
G01 X14.4710 Y26.8980 F20.00
G01 X14.5628 Y26.8716 F20.00
G01 X14.6575 Y26.8555 F20.00
G01 X14.7540 Y26.8500 F20.00
G01 X14.8505 Y26.8555 F20.00
G01 X14.9452 Y26.8716 F20.00
G01 X15.0370 Y26.8980 F20.00
G01 X15.1267 Y26.9352 F20.00
G01 X15.2103 Y26.9814 F20.00
G01 X15.2889 Y27.0371 F20.00
G01 X15.3607 Y27.1013 F20.00
G01 X15.4245 Y27.1727 F20.00
G01 X15.4807 Y27.2519 F20.00
G01 X15.5272 Y27.3362 F20.00
G01 X15.5637 Y27.4243 F20.00
G01 X15.5906 Y27.5175 F20.00
G01 X15.6066 Y27.6121 F20.00
G01 X15.6120 Y27.7080 F20.00
G01 X15.6066 Y27.8039 F20.00
G01 X15.5904 Y27.8993 F20.00
G01 X15.5637 Y27.9917 F20.00
G01 X15.5272 Y28.0799 F20.00
G01 X15.4806 Y28.1644 F20.00
G01 X15.4251 Y28.2426 F20.00
G01 X15.3604 Y28.3150 F20.00
G01 X15.2889 Y28.3789 F20.00
G01 X15.2103 Y28.4346 F20.00
G01 X15.1267 Y28.4808 F20.00
G01 X15.0377 Y28.5177 F20.00
G01 X14.9452 Y28.5444 F20.00
G01 X14.8499 Y28.5606 F20.00
G01 X14.7540 Y28.5660 F20.00
G01 X14.6581 Y28.5606 F20.00
G01 X14.5628 Y28.5444 F20.00
G01 X14.4702 Y28.5177 F20.00
G01 X14.3821 Y28.4812 F20.00
G01 X14.2979 Y28.4347 F20.00
G01 X14.2191 Y28.3789 F20.00
G01 X14.1473 Y28.3147 F20.00
G01 X14.0829 Y28.2426 F20.00
G01 X14.0273 Y28.1641 F20.00
G01 X13.9812 Y28.0807 F20.00
G01 X13.9544 Y28.0162 F20.00
G01 X13.5475 Y28.0162 F20.00
G01 X13.5132 Y28.0142 F20.00
G01 X13.4786 Y28.0084 F20.00
G01 X13.4453 Y27.9987 F20.00
G01 X13.4134 Y27.9854 F20.00
G01 X13.3837 Y27.9690 F20.00
G01 X13.3557 Y27.9492 F20.00
G01 X13.3296 Y27.9259 F20.00
G01 X12.2169 Y26.8132 F20.00
G01 X6.6042 Y26.8132 F20.00
G01 X6.6042 Y27.0400 F20.00
G01 X6.7960 Y27.0400 F20.00
G01 X6.7992 Y27.0407 F20.00
G01 X6.8014 Y27.0421 F20.00
G01 X6.8029 Y27.0440 F20.00
G01 X6.8040 Y27.0472 F20.00
G01 X6.8040 Y28.5480 F20.00
G01 X6.8033 Y28.5513 F20.00
G01 X6.8007 Y28.5545 F20.00
G01 X6.7960 Y28.5560 F20.00
G01 X5.7952 Y28.5560 F20.00
G01 X5.7920 Y28.5549 F20.00
G01 X5.7901 Y28.5534 F20.00
G01 X5.7887 Y28.5513 F20.00
G01 X5.7880 Y28.5480 F20.00
G01 X5.7880 Y27.0472 F20.00
G01 X5.7891 Y27.0440 F20.00
G01 X5.7906 Y27.0421 F20.00
G01 X5.7928 Y27.0407 F20.00
G01 X5.7960 Y27.0400 F20.00
G01 X5.9878 Y27.0400 F20.00
G01 X5.9878 Y26.8132 F20.00
G01 X5.3531 Y26.8132 F20.00
G01 X4.3942 Y27.7722 F20.00
G01 X4.3942 Y28.6395 F20.00
G01 X4.5423 Y28.6395 F20.00
G01 X4.5669 Y28.6407 F20.00
G01 X4.5915 Y28.6444 F20.00
G01 X4.6153 Y28.6503 F20.00
G01 X4.6388 Y28.6588 F20.00
G01 X4.6613 Y28.6694 F20.00
G01 X4.6824 Y28.6822 F20.00
G01 X4.7021 Y28.6968 F20.00
G01 X4.7200 Y28.7130 F20.00
G01 X4.7367 Y28.7314 F20.00
G01 X4.7516 Y28.7514 F20.00
G01 X4.7644 Y28.7728 F20.00
G01 X4.7750 Y28.7953 F20.00
G01 X4.7832 Y28.8182 F20.00
G01 X4.7891 Y28.8418 F20.00
G01 X4.7928 Y28.8666 F20.00
G01 X4.7940 Y28.8913 F20.00
G01 X4.7940 Y29.3788 F20.00
G01 X4.7927 Y29.4038 F20.00
G01 X4.7891 Y29.4281 F20.00
G01 X4.7832 Y29.4518 F20.00
G01 X4.7747 Y29.4755 F20.00
G01 X4.7644 Y29.4972 F20.00
G01 X4.7516 Y29.5186 F20.00
G01 X4.7367 Y29.5386 F20.00
G01 X4.7205 Y29.5565 F20.00
G01 X4.7016 Y29.5736 F20.00
G01 X4.6821 Y29.5881 F20.00
G01 X4.6613 Y29.6006 F20.00
G01 X4.6382 Y29.6115 F20.00
G01 X4.6153 Y29.6197 F20.00
G01 X4.5915 Y29.6256 F20.00
G01 X4.5669 Y29.6293 F20.00
G01 X4.5426 Y29.6305 F20.00
G01 X3.6297 Y29.6305 F20.00
G01 X3.6051 Y29.6293 F20.00
G01 X3.5803 Y29.6256 F20.00
G01 X3.5567 Y29.6197 F20.00
G01 X3.5338 Y29.6115 F20.00
G01 X3.5113 Y29.6009 F20.00
G01 X3.4899 Y29.5881 F20.00
G01 X3.4697 Y29.5731 F20.00
G01 X3.4517 Y29.5568 F20.00
G01 X3.4354 Y29.5388 F20.00
G01 X3.4204 Y29.5186 F20.00
G01 X3.4076 Y29.4971 F20.00
G01 X3.3972 Y29.4753 F20.00
G01 X3.3887 Y29.4515 F20.00
G01 X3.3829 Y29.4281 F20.00
G01 X3.3793 Y29.4038 F20.00
G01 X3.3780 Y29.3792 F20.00
G01 X3.3780 Y28.8913 F20.00
G01 X3.3792 Y28.8666 F20.00
G01 X3.3829 Y28.8418 F20.00
G01 X3.3888 Y28.8182 F20.00
G01 X3.3973 Y28.7946 F20.00
G01 X3.4076 Y28.7728 F20.00
G01 X3.4202 Y28.7517 F20.00
G01 X3.4349 Y28.7319 F20.00
G01 X3.4517 Y28.7133 F20.00
G01 X3.4699 Y28.6968 F20.00
G01 X3.4899 Y28.6819 F20.00
G01 X3.5113 Y28.6691 F20.00
G01 X3.5332 Y28.6588 F20.00
G01 X3.5567 Y28.6503 F20.00
G01 X3.5805 Y28.6444 F20.00
G01 X3.6051 Y28.6407 F20.00
G01 X3.6297 Y28.6395 F20.00
G01 X3.7778 Y28.6395 F20.00
G01 X3.7778 Y28.0162 F20.00
G01 X2.0916 Y28.0162 F20.00
G01 X2.0648 Y28.0807 F20.00
G01 X2.0187 Y28.1641 F20.00
G01 X1.9629 Y28.2429 F20.00
G01 X1.8984 Y28.3150 F20.00
G01 X1.8269 Y28.3789 F20.00
G01 X1.7489 Y28.4343 F20.00
G01 X1.6647 Y28.4808 F20.00
G01 X1.5750 Y28.5180 F20.00
G01 X1.4832 Y28.5444 F20.00
G01 X1.3885 Y28.5606 F20.00
G01 X1.2920 Y28.5660 F20.00
G01 X1.1961 Y28.5606 F20.00
G01 X1.1006 Y28.5444 F20.00
G01 X1.0083 Y28.5177 F20.00
G01 X0.9201 Y28.4812 F20.00
G01 X0.8357 Y28.4346 F20.00
G01 X0.7567 Y28.3785 F20.00
G01 X0.6853 Y28.3147 F20.00
G01 X0.6215 Y28.2433 F20.00
G01 X0.5654 Y28.1644 F20.00
G01 X0.5188 Y28.0799 F20.00
G00 Z2.0000
G00 X0.5188 Y30.6199
G01 F20.00
G01 Z-0.0200
G01 F20.00
G01 X0.4823 Y30.5317 F20.00
G01 X0.4556 Y30.4393 F20.00
G01 X0.4394 Y30.3439 F20.00
G01 X0.4340 Y30.2480 F20.00
G01 X0.4394 Y30.1521 F20.00
G01 X0.4556 Y30.0568 F20.00
G01 X0.4823 Y29.9643 F20.00
G01 X0.5192 Y29.8753 F20.00
G01 X0.5654 Y29.7917 F20.00
G01 X0.6211 Y29.7131 F20.00
G01 X0.6853 Y29.6413 F20.00
G01 X0.7574 Y29.5769 F20.00
G01 X0.8357 Y29.5214 F20.00
G01 X0.9193 Y29.4752 F20.00
G01 X1.0082 Y29.4383 F20.00
G01 X1.1008 Y29.4116 F20.00
G01 X1.1955 Y29.3955 F20.00
G01 X1.2924 Y29.3900 F20.00
G01 X1.3879 Y29.3954 F20.00
G01 X1.4834 Y29.4116 F20.00
G01 X1.5757 Y29.4383 F20.00
G01 X1.6639 Y29.4748 F20.00
G01 X1.7483 Y29.5214 F20.00
G01 X1.8266 Y29.5769 F20.00
G01 X1.8990 Y29.6416 F20.00
G01 X1.9629 Y29.7131 F20.00
G01 X2.0186 Y29.7917 F20.00
G01 X2.0648 Y29.8753 F20.00
G01 X2.1017 Y29.9643 F20.00
G01 X2.1284 Y30.0568 F20.00
G01 X2.1341 Y30.0899 F20.00
G01 X2.6235 Y30.0899 F20.00
G01 X2.7677 Y29.9457 F20.00
G01 X2.7810 Y29.9339 F20.00
G01 X2.7958 Y29.9234 F20.00
G01 X2.8113 Y29.9149 F20.00
G01 X2.8270 Y29.9084 F20.00
G01 X2.8448 Y29.9033 F20.00
G01 X2.8620 Y29.9004 F20.00
G01 X2.8791 Y29.8995 F20.00
G01 X5.4830 Y29.8994 F20.00
G01 X5.5005 Y29.9004 F20.00
G01 X5.5185 Y29.9035 F20.00
G01 X5.5355 Y29.9084 F20.00
G01 X5.5512 Y29.9149 F20.00
G01 X5.5675 Y29.9239 F20.00
G01 X5.5815 Y29.9339 F20.00
G01 X5.5948 Y29.9457 F20.00
G01 X6.4078 Y30.7587 F20.00
G01 X6.4196 Y30.7720 F20.00
G01 X6.4299 Y30.7866 F20.00
G01 X6.4382 Y30.8015 F20.00
G01 X6.4451 Y30.8180 F20.00
G01 X6.4502 Y30.8358 F20.00
G01 X6.4531 Y30.8530 F20.00
G01 X6.4541 Y30.8705 F20.00
G01 X6.4541 Y31.9400 F20.00
G01 X6.7960 Y31.9400 F20.00
G01 X6.7992 Y31.9407 F20.00
G01 X6.8014 Y31.9421 F20.00
G01 X6.8029 Y31.9440 F20.00
G01 X6.8040 Y31.9472 F20.00
G01 X6.8040 Y33.4480 F20.00
G01 X6.8033 Y33.4513 F20.00
G01 X6.8007 Y33.4545 F20.00
G01 X6.7960 Y33.4560 F20.00
G01 X5.7960 Y33.4560 F20.00
G01 X5.7913 Y33.4545 F20.00
G01 X5.7887 Y33.4513 F20.00
G01 X5.7880 Y33.4480 F20.00
G01 X5.7880 Y31.9472 F20.00
G01 X5.7891 Y31.9440 F20.00
G01 X5.7906 Y31.9421 F20.00
G01 X5.7928 Y31.9407 F20.00
G01 X5.7960 Y31.9400 F20.00
G01 X6.1379 Y31.9400 F20.00
G01 X6.1379 Y30.9360 F20.00
G01 X5.4175 Y30.2156 F20.00
G01 X2.9450 Y30.2156 F20.00
G01 X2.8008 Y30.3598 F20.00
G01 X2.7879 Y30.3713 F20.00
G01 X2.7730 Y30.3819 F20.00
G01 X2.7580 Y30.3902 F20.00
G01 X2.7415 Y30.3971 F20.00
G01 X2.7245 Y30.4020 F20.00
G01 X2.7065 Y30.4051 F20.00
G01 X2.6890 Y30.4061 F20.00
G01 X2.1341 Y30.4061 F20.00
G01 X2.1284 Y30.4393 F20.00
G01 X2.1020 Y30.5310 F20.00
G01 X2.0648 Y30.6207 F20.00
G01 X2.0186 Y30.7044 F20.00
G01 X1.9631 Y30.7826 F20.00
G01 X1.8984 Y30.8550 F20.00
G01 X1.8269 Y30.9189 F20.00
G01 X1.7489 Y30.9743 F20.00
G01 X1.6639 Y31.0212 F20.00
G01 X1.5757 Y31.0577 F20.00
G01 X1.4834 Y31.0844 F20.00
G01 X1.3879 Y31.1006 F20.00
G01 X1.2920 Y31.1060 F20.00
G01 X1.1964 Y31.1007 F20.00
G01 X1.1008 Y31.0844 F20.00
G01 X1.0082 Y31.0577 F20.00
G01 X0.9201 Y31.0212 F20.00
G01 X0.8359 Y30.9747 F20.00
G01 X0.7567 Y30.9185 F20.00
G01 X0.6853 Y30.8547 F20.00
G01 X0.6215 Y30.7833 F20.00
G01 X0.5654 Y30.7044 F20.00
G01 X0.5188 Y30.6199 F20.00
G00 Z2.0000
G00 X0.4420 Y31.9300
G01 F20.00
G01 Z-0.0200
G01 F20.00
G01 X2.1437 Y31.9302 F20.00
G01 X2.1479 Y31.9327 F20.00
G01 X2.1493 Y31.9348 F20.00
G01 X2.1500 Y31.9380 F20.00
G01 X2.1500 Y32.4799 F20.00
G01 X3.7778 Y32.4799 F20.00
G01 X3.7778 Y31.5055 F20.00
G01 X3.6297 Y31.5055 F20.00
G01 X3.6051 Y31.5043 F20.00
G01 X3.5805 Y31.5006 F20.00
G01 X3.5570 Y31.4948 F20.00
G01 X3.5332 Y31.4863 F20.00
G01 X3.5113 Y31.4759 F20.00
G01 X3.4899 Y31.4631 F20.00
G01 X3.4699 Y31.4483 F20.00
G01 X3.4517 Y31.4318 F20.00
G01 X3.4353 Y31.4136 F20.00
G01 X3.4204 Y31.3936 F20.00
G01 X3.4076 Y31.3722 F20.00
G01 X3.3972 Y31.3503 F20.00
G01 X3.3888 Y31.3268 F20.00
G01 X3.3829 Y31.3031 F20.00
G01 X3.3792 Y31.2785 F20.00
G01 X3.3780 Y31.2542 F20.00
G01 X3.3780 Y30.7663 F20.00
G01 X3.3792 Y30.7416 F20.00
G01 X3.3829 Y30.7170 F20.00
G01 X3.3888 Y30.6932 F20.00
G01 X3.3972 Y30.6697 F20.00
G01 X3.4079 Y30.6472 F20.00
G01 X3.4204 Y30.6264 F20.00
G01 X3.4349 Y30.6069 F20.00
G01 X3.4517 Y30.5883 F20.00
G01 X3.4704 Y30.5714 F20.00
G01 X3.4899 Y30.5569 F20.00
G01 X3.5107 Y30.5444 F20.00
G01 X3.5332 Y30.5338 F20.00
G01 X3.5570 Y30.5253 F20.00
G01 X3.5805 Y30.5194 F20.00
G01 X3.6047 Y30.5158 F20.00
G01 X3.6297 Y30.5145 F20.00
G01 X4.5423 Y30.5145 F20.00
G01 X4.5669 Y30.5157 F20.00
G01 X4.5915 Y30.5194 F20.00
G01 X4.6150 Y30.5253 F20.00
G01 X4.6388 Y30.5338 F20.00
G01 X4.6607 Y30.5441 F20.00
G01 X4.6818 Y30.5567 F20.00
G01 X4.7021 Y30.5718 F20.00
G01 X4.7203 Y30.5883 F20.00
G01 X4.7366 Y30.6063 F20.00
G01 X4.7516 Y30.6264 F20.00
G01 X4.7644 Y30.6478 F20.00
G01 X4.7747 Y30.6696 F20.00
G01 X4.7832 Y30.6932 F20.00
G01 X4.7891 Y30.7170 F20.00
G01 X4.7927 Y30.7412 F20.00
G01 X4.7940 Y30.7663 F20.00
G01 X4.7940 Y31.2538 F20.00
G01 X4.7928 Y31.2785 F20.00
G01 X4.7891 Y31.3033 F20.00
G01 X4.7832 Y31.3268 F20.00
G01 X4.7750 Y31.3497 F20.00
G01 X4.7644 Y31.3722 F20.00
G01 X4.7516 Y31.3936 F20.00
G01 X4.7367 Y31.4136 F20.00
G01 X4.7200 Y31.4320 F20.00
G01 X4.7021 Y31.4483 F20.00
G01 X4.6824 Y31.4629 F20.00
G01 X4.6613 Y31.4756 F20.00
G01 X4.6388 Y31.4863 F20.00
G01 X4.6153 Y31.4947 F20.00
G01 X4.5915 Y31.5006 F20.00
G01 X4.5669 Y31.5043 F20.00
G01 X4.5423 Y31.5055 F20.00
G01 X4.3942 Y31.5055 F20.00
G01 X4.3942 Y32.6604 F20.00
G01 X5.3736 Y33.6399 F20.00
G01 X9.1878 Y33.6399 F20.00
G01 X9.1878 Y33.4560 F20.00
G01 X8.9960 Y33.4560 F20.00
G01 X8.9928 Y33.4553 F20.00
G01 X8.9906 Y33.4540 F20.00
G01 X8.9891 Y33.4520 F20.00
G01 X8.9880 Y33.4488 F20.00
G01 X8.9880 Y31.9480 F20.00
G01 X8.9887 Y31.9448 F20.00
G01 X8.9906 Y31.9421 F20.00
G01 X8.9928 Y31.9407 F20.00
G01 X8.9960 Y31.9400 F20.00
G01 X9.9960 Y31.9400 F20.00
G01 X10.0007 Y31.9415 F20.00
G01 X10.0033 Y31.9448 F20.00
G01 X10.0040 Y31.9480 F20.00
G01 X10.0040 Y33.4488 F20.00
G01 X10.0029 Y33.4520 F20.00
G01 X10.0014 Y33.4540 F20.00
G01 X9.9992 Y33.4553 F20.00
G01 X9.9960 Y33.4560 F20.00
G01 X9.8042 Y33.4560 F20.00
G01 X9.8042 Y33.6399 F20.00
G01 X12.0164 Y33.6399 F20.00
G01 X13.0861 Y32.5701 F20.00
G01 X13.1119 Y32.5470 F20.00
G01 X13.1402 Y32.5270 F20.00
G01 X13.1699 Y32.5106 F20.00
G01 X13.2019 Y32.4973 F20.00
G01 X13.2351 Y32.4877 F20.00
G01 X13.2699 Y32.4818 F20.00
G01 X13.3040 Y32.4799 F20.00
G01 X13.8960 Y32.4799 F20.00
G01 X13.8960 Y31.9380 F20.00
G01 X13.8967 Y31.9348 F20.00
G01 X13.8981 Y31.9327 F20.00
G01 X13.9008 Y31.9307 F20.00
G01 X13.9040 Y31.9300 F20.00
G01 X15.6040 Y31.9300 F20.00
G01 X15.6072 Y31.9307 F20.00
G01 X15.6099 Y31.9327 F20.00
G01 X15.6113 Y31.9348 F20.00
G01 X15.6120 Y31.9380 F20.00
G01 X15.6120 Y33.6388 F20.00
G01 X15.6109 Y33.6420 F20.00
G01 X15.6094 Y33.6440 F20.00
G01 X15.6072 Y33.6453 F20.00
G01 X15.6040 Y33.6460 F20.00
G01 X13.9023 Y33.6458 F20.00
G01 X13.8981 Y33.6434 F20.00
G01 X13.8967 Y33.6413 F20.00
G01 X13.8960 Y33.6380 F20.00
G01 X13.8960 Y33.0962 F20.00
G01 X13.4316 Y33.0962 F20.00
G01 X12.3616 Y34.1662 F20.00
G01 X12.3358 Y34.1892 F20.00
G01 X12.3078 Y34.2090 F20.00
G01 X12.2781 Y34.2254 F20.00
G01 X12.2453 Y34.2390 F20.00
G01 X12.2129 Y34.2484 F20.00
G01 X12.1789 Y34.2542 F20.00
G01 X12.1440 Y34.2562 F20.00
G01 X5.2460 Y34.2562 F20.00
G01 X5.2117 Y34.2542 F20.00
G01 X5.1770 Y34.2483 F20.00
G01 X5.1439 Y34.2388 F20.00
G01 X5.1127 Y34.2258 F20.00
G01 X5.0817 Y34.2087 F20.00
G01 X5.0539 Y34.1890 F20.00
G01 X5.0284 Y34.1662 F20.00
G01 X3.9584 Y33.0962 F20.00
G01 X2.1500 Y33.0962 F20.00
G01 X2.1500 Y33.6380 F20.00
G01 X2.1485 Y33.6427 F20.00
G01 X2.1445 Y33.6456 F20.00
G01 X0.4420 Y33.6460 F20.00
G01 X0.4388 Y33.6453 F20.00
G01 X0.4355 Y33.6427 F20.00
G01 X0.4340 Y33.6380 F20.00
G01 X0.4340 Y31.9380 F20.00
G01 X0.4347 Y31.9348 F20.00
G01 X0.4361 Y31.9327 F20.00
G01 X0.4388 Y31.9307 F20.00
G01 X0.4420 Y31.9300 F20.00
G00 Z2.0000
G00 X0.5188 Y36.7259
G01 F20.00
G01 Z-0.0200
G01 F20.00
G01 X0.4823 Y36.6377 F20.00
G01 X0.4556 Y36.5453 F20.00
G01 X0.4394 Y36.4499 F20.00
G01 X0.4340 Y36.3540 F20.00
G01 X0.4394 Y36.2581 F20.00
G01 X0.4556 Y36.1628 F20.00
G01 X0.4823 Y36.0703 F20.00
G01 X0.5188 Y35.9822 F20.00
G01 X0.5654 Y35.8977 F20.00
G01 X0.6209 Y35.8194 F20.00
G01 X0.6856 Y35.7470 F20.00
G01 X0.7571 Y35.6831 F20.00
G01 X0.8357 Y35.6274 F20.00
G01 X0.9193 Y35.5812 F20.00
G01 X1.0083 Y35.5443 F20.00
G01 X1.1008 Y35.5176 F20.00
G01 X1.1955 Y35.5015 F20.00
G01 X1.2924 Y35.4960 F20.00
G01 X1.3879 Y35.5014 F20.00
G01 X1.4832 Y35.5176 F20.00
G01 X1.5757 Y35.5443 F20.00
G01 X1.6639 Y35.5808 F20.00
G01 X1.7483 Y35.6274 F20.00
G01 X1.8266 Y35.6829 F20.00
G01 X1.8990 Y35.7476 F20.00
G01 X1.9629 Y35.8191 F20.00
G01 X2.0186 Y35.8977 F20.00
G01 X2.0648 Y35.9813 F20.00
G01 X2.0916 Y36.0459 F20.00
G01 X3.8949 Y36.0459 F20.00
G01 X5.0079 Y34.9328 F20.00
G01 X5.0334 Y34.9100 F20.00
G01 X5.0617 Y34.8900 F20.00
G01 X5.0914 Y34.8736 F20.00
G01 X5.1233 Y34.8603 F20.00
G01 X5.1574 Y34.8505 F20.00
G01 X5.1912 Y34.8448 F20.00
G01 X5.2255 Y34.8429 F20.00
G01 X12.3445 Y34.8429 F20.00
G01 X12.3795 Y34.8449 F20.00
G01 X12.4134 Y34.8507 F20.00
G01 X12.4459 Y34.8600 F20.00
G01 X12.4786 Y34.8736 F20.00
G01 X12.5083 Y34.8900 F20.00
G01 X12.5363 Y34.9098 F20.00
G01 X12.5621 Y34.9328 F20.00
G01 X13.6751 Y36.0459 F20.00
G01 X13.9544 Y36.0459 F20.00
G01 X13.9812 Y35.9813 F20.00
G01 X14.0274 Y35.8977 F20.00
G01 X14.0831 Y35.8191 F20.00
G01 X14.1470 Y35.7476 F20.00
G01 X14.2194 Y35.6829 F20.00
G01 X14.2977 Y35.6274 F20.00
G01 X14.3821 Y35.5808 F20.00
G01 X14.4710 Y35.5440 F20.00
G01 X14.5628 Y35.5176 F20.00
G01 X14.6575 Y35.5015 F20.00
G01 X14.7540 Y35.4960 F20.00
G01 X14.8505 Y35.5015 F20.00
G01 X14.9452 Y35.5176 F20.00
G01 X15.0370 Y35.5440 F20.00
G01 X15.1267 Y35.5812 F20.00
G01 X15.2103 Y35.6274 F20.00
G01 X15.2889 Y35.6831 F20.00
G01 X15.3607 Y35.7473 F20.00
G01 X15.4245 Y35.8187 F20.00
G01 X15.4807 Y35.8979 F20.00
G01 X15.5272 Y35.9822 F20.00
G01 X15.5637 Y36.0703 F20.00
G01 X15.5906 Y36.1635 F20.00
G01 X15.6066 Y36.2581 F20.00
G01 X15.6120 Y36.3540 F20.00
G01 X15.6066 Y36.4499 F20.00
G01 X15.5904 Y36.5453 F20.00
G01 X15.5637 Y36.6377 F20.00
G01 X15.5272 Y36.7259 F20.00
G01 X15.4806 Y36.8104 F20.00
G01 X15.4251 Y36.8886 F20.00
G01 X15.3604 Y36.9610 F20.00
G01 X15.2889 Y37.0249 F20.00
G01 X15.2103 Y37.0806 F20.00
G01 X15.1267 Y37.1268 F20.00
G01 X15.0377 Y37.1637 F20.00
G01 X14.9452 Y37.1904 F20.00
G01 X14.8499 Y37.2066 F20.00
G01 X14.7540 Y37.2120 F20.00
G01 X14.6581 Y37.2066 F20.00
G01 X14.5628 Y37.1904 F20.00
G01 X14.4702 Y37.1637 F20.00
G01 X14.3821 Y37.1272 F20.00
G01 X14.2979 Y37.0807 F20.00
G01 X14.2191 Y37.0249 F20.00
G01 X14.1473 Y36.9607 F20.00
G01 X14.0829 Y36.8886 F20.00
G01 X14.0273 Y36.8101 F20.00
G01 X13.9812 Y36.7267 F20.00
G01 X13.9544 Y36.6622 F20.00
G01 X13.5475 Y36.6622 F20.00
G01 X13.5132 Y36.6602 F20.00
G01 X13.4786 Y36.6544 F20.00
G01 X13.4453 Y36.6447 F20.00
G01 X13.4134 Y36.6314 F20.00
G01 X13.3837 Y36.6150 F20.00
G01 X13.3557 Y36.5952 F20.00
G01 X13.3296 Y36.5719 F20.00
G01 X12.2169 Y35.4592 F20.00
G01 X6.6042 Y35.4592 F20.00
G01 X6.6042 Y35.6860 F20.00
G01 X6.7960 Y35.6860 F20.00
G01 X6.7992 Y35.6867 F20.00
G01 X6.8014 Y35.6881 F20.00
G01 X6.8029 Y35.6900 F20.00
G01 X6.8040 Y35.6932 F20.00
G01 X6.8040 Y37.1940 F20.00
G01 X6.8033 Y37.1973 F20.00
G01 X6.8007 Y37.2005 F20.00
G01 X6.7960 Y37.2020 F20.00
G01 X5.7952 Y37.2020 F20.00
G01 X5.7920 Y37.2010 F20.00
G01 X5.7901 Y37.1994 F20.00
G01 X5.7887 Y37.1973 F20.00
G01 X5.7880 Y37.1940 F20.00
G01 X5.7880 Y35.6932 F20.00
G01 X5.7891 Y35.6900 F20.00
G01 X5.7906 Y35.6881 F20.00
G01 X5.7928 Y35.6867 F20.00
G01 X5.7960 Y35.6860 F20.00
G01 X5.9878 Y35.6860 F20.00
G01 X5.9878 Y35.4592 F20.00
G01 X5.3531 Y35.4592 F20.00
G01 X4.3942 Y36.4182 F20.00
G01 X4.3942 Y37.2855 F20.00
G01 X4.5423 Y37.2855 F20.00
G01 X4.5669 Y37.2867 F20.00
G01 X4.5915 Y37.2904 F20.00
G01 X4.6153 Y37.2964 F20.00
G01 X4.6388 Y37.3048 F20.00
G01 X4.6613 Y37.3154 F20.00
G01 X4.6824 Y37.3282 F20.00
G01 X4.7021 Y37.3428 F20.00
G01 X4.7200 Y37.3590 F20.00
G01 X4.7367 Y37.3774 F20.00
G01 X4.7516 Y37.3974 F20.00
G01 X4.7644 Y37.4188 F20.00
G01 X4.7750 Y37.4413 F20.00
G01 X4.7832 Y37.4642 F20.00
G01 X4.7891 Y37.4878 F20.00
G01 X4.7928 Y37.5126 F20.00
G01 X4.7940 Y37.5373 F20.00
G01 X4.7940 Y38.0248 F20.00
G01 X4.7927 Y38.0498 F20.00
G01 X4.7891 Y38.0741 F20.00
G01 X4.7832 Y38.0978 F20.00
G01 X4.7747 Y38.1215 F20.00
G01 X4.7644 Y38.1433 F20.00
G01 X4.7516 Y38.1646 F20.00
G01 X4.7367 Y38.1846 F20.00
G01 X4.7205 Y38.2025 F20.00
G01 X4.7016 Y38.2196 F20.00
G01 X4.6821 Y38.2341 F20.00
G01 X4.6613 Y38.2466 F20.00
G01 X4.6382 Y38.2575 F20.00
G01 X4.6153 Y38.2657 F20.00
G01 X4.5915 Y38.2716 F20.00
G01 X4.5669 Y38.2753 F20.00
G01 X4.5426 Y38.2765 F20.00
G01 X3.6297 Y38.2765 F20.00
G01 X3.6051 Y38.2753 F20.00
G01 X3.5803 Y38.2716 F20.00
G01 X3.5567 Y38.2657 F20.00
G01 X3.5338 Y38.2575 F20.00
G01 X3.5113 Y38.2469 F20.00
G01 X3.4899 Y38.2341 F20.00
G01 X3.4697 Y38.2191 F20.00
G01 X3.4517 Y38.2028 F20.00
G01 X3.4354 Y38.1848 F20.00
G01 X3.4204 Y38.1646 F20.00
G01 X3.4076 Y38.1431 F20.00
G01 X3.3972 Y38.1213 F20.00
G01 X3.3887 Y38.0975 F20.00
G01 X3.3829 Y38.0741 F20.00
G01 X3.3793 Y38.0498 F20.00
G01 X3.3780 Y38.0252 F20.00
G01 X3.3780 Y37.5373 F20.00
G01 X3.3792 Y37.5126 F20.00
G01 X3.3829 Y37.4878 F20.00
G01 X3.3888 Y37.4642 F20.00
G01 X3.3973 Y37.4406 F20.00
G01 X3.4076 Y37.4188 F20.00
G01 X3.4202 Y37.3977 F20.00
G01 X3.4349 Y37.3779 F20.00
G01 X3.4517 Y37.3593 F20.00
G01 X3.4699 Y37.3428 F20.00
G01 X3.4899 Y37.3279 F20.00
G01 X3.5113 Y37.3151 F20.00
G01 X3.5332 Y37.3048 F20.00
G01 X3.5567 Y37.2964 F20.00
G01 X3.5805 Y37.2904 F20.00
G01 X3.6051 Y37.2867 F20.00
G01 X3.6297 Y37.2855 F20.00
G01 X3.7778 Y37.2855 F20.00
G01 X3.7778 Y36.6622 F20.00
G01 X2.0916 Y36.6622 F20.00
G01 X2.0648 Y36.7267 F20.00
G01 X2.0187 Y36.8101 F20.00
G01 X1.9629 Y36.8889 F20.00
G01 X1.8984 Y36.9610 F20.00
G01 X1.8269 Y37.0249 F20.00
G01 X1.7489 Y37.0803 F20.00
G01 X1.6647 Y37.1268 F20.00
G01 X1.5750 Y37.1640 F20.00
G01 X1.4832 Y37.1904 F20.00
G01 X1.3885 Y37.2066 F20.00
G01 X1.2920 Y37.2120 F20.00
G01 X1.1961 Y37.2066 F20.00
G01 X1.1006 Y37.1904 F20.00
G01 X1.0083 Y37.1637 F20.00
G01 X0.9201 Y37.1272 F20.00
G01 X0.8357 Y37.0806 F20.00
G01 X0.7567 Y37.0245 F20.00
G01 X0.6853 Y36.9607 F20.00
G01 X0.6215 Y36.8893 F20.00
G01 X0.5654 Y36.8104 F20.00
G01 X0.5188 Y36.7259 F20.00
G00 Z2.0000
G00 X0.5188 Y39.2659
G01 F20.00
G01 Z-0.0200
G01 F20.00
G01 X0.4823 Y39.1777 F20.00
G01 X0.4556 Y39.0853 F20.00
G01 X0.4394 Y38.9899 F20.00
G01 X0.4340 Y38.8940 F20.00
G01 X0.4394 Y38.7981 F20.00
G01 X0.4556 Y38.7028 F20.00
G01 X0.4823 Y38.6103 F20.00
G01 X0.5192 Y38.5213 F20.00
G01 X0.5654 Y38.4377 F20.00
G01 X0.6211 Y38.3591 F20.00
G01 X0.6853 Y38.2873 F20.00
G01 X0.7574 Y38.2229 F20.00
G01 X0.8357 Y38.1674 F20.00
G01 X0.9193 Y38.1212 F20.00
G01 X1.0082 Y38.0843 F20.00
G01 X1.1008 Y38.0576 F20.00
G01 X1.1955 Y38.0415 F20.00
G01 X1.2924 Y38.0360 F20.00
G01 X1.3879 Y38.0414 F20.00
G01 X1.4834 Y38.0576 F20.00
G01 X1.5757 Y38.0843 F20.00
G01 X1.6639 Y38.1208 F20.00
G01 X1.7483 Y38.1674 F20.00
G01 X1.8266 Y38.2229 F20.00
G01 X1.8990 Y38.2876 F20.00
G01 X1.9629 Y38.3591 F20.00
G01 X2.0186 Y38.4377 F20.00
G01 X2.0648 Y38.5213 F20.00
G01 X2.1017 Y38.6103 F20.00
G01 X2.1284 Y38.7028 F20.00
G01 X2.1341 Y38.7359 F20.00
G01 X2.6235 Y38.7359 F20.00
G01 X2.7677 Y38.5917 F20.00
G01 X2.7810 Y38.5799 F20.00
G01 X2.7958 Y38.5694 F20.00
G01 X2.8113 Y38.5609 F20.00
G01 X2.8270 Y38.5544 F20.00
G01 X2.8448 Y38.5493 F20.00
G01 X2.8620 Y38.5464 F20.00
G01 X2.8791 Y38.5455 F20.00
G01 X5.4830 Y38.5454 F20.00
G01 X5.5005 Y38.5464 F20.00
G01 X5.5185 Y38.5495 F20.00
G01 X5.5355 Y38.5544 F20.00
G01 X5.5512 Y38.5609 F20.00
G01 X5.5675 Y38.5699 F20.00
G01 X5.5815 Y38.5799 F20.00
G01 X5.5948 Y38.5917 F20.00
G01 X6.4078 Y39.4047 F20.00
G01 X6.4196 Y39.4180 F20.00
G01 X6.4299 Y39.4326 F20.00
G01 X6.4382 Y39.4475 F20.00
G01 X6.4451 Y39.4640 F20.00
G01 X6.4502 Y39.4818 F20.00
G01 X6.4531 Y39.4990 F20.00
G01 X6.4541 Y39.5165 F20.00
G01 X6.4541 Y40.5860 F20.00
G01 X6.7960 Y40.5860 F20.00
G01 X6.7992 Y40.5867 F20.00
G01 X6.8014 Y40.5881 F20.00
G01 X6.8029 Y40.5900 F20.00
G01 X6.8040 Y40.5932 F20.00
G01 X6.8040 Y42.0940 F20.00
G01 X6.8033 Y42.0973 F20.00
G01 X6.8007 Y42.1005 F20.00
G01 X6.7960 Y42.1020 F20.00
G01 X5.7960 Y42.1020 F20.00
G01 X5.7913 Y42.1005 F20.00
G01 X5.7887 Y42.0973 F20.00
G01 X5.7880 Y42.0940 F20.00
G01 X5.7880 Y40.5932 F20.00
G01 X5.7891 Y40.5900 F20.00
G01 X5.7906 Y40.5881 F20.00
G01 X5.7928 Y40.5867 F20.00
G01 X5.7960 Y40.5860 F20.00
G01 X6.1379 Y40.5860 F20.00
G01 X6.1379 Y39.5820 F20.00
G01 X5.4175 Y38.8616 F20.00
G01 X2.9450 Y38.8616 F20.00
G01 X2.8008 Y39.0058 F20.00
G01 X2.7879 Y39.0173 F20.00
G01 X2.7730 Y39.0280 F20.00
G01 X2.7580 Y39.0362 F20.00
G01 X2.7415 Y39.0431 F20.00
G01 X2.7245 Y39.0481 F20.00
G01 X2.7065 Y39.0511 F20.00
G01 X2.6890 Y39.0521 F20.00
G01 X2.1341 Y39.0521 F20.00
G01 X2.1284 Y39.0853 F20.00
G01 X2.1020 Y39.1770 F20.00
G01 X2.0648 Y39.2667 F20.00
G01 X2.0186 Y39.3504 F20.00
G01 X1.9631 Y39.4286 F20.00
G01 X1.8984 Y39.5010 F20.00
G01 X1.8269 Y39.5649 F20.00
G01 X1.7489 Y39.6203 F20.00
G01 X1.6639 Y39.6672 F20.00
G01 X1.5757 Y39.7037 F20.00
G01 X1.4834 Y39.7304 F20.00
G01 X1.3879 Y39.7466 F20.00
G01 X1.2920 Y39.7520 F20.00
G01 X1.1964 Y39.7467 F20.00
G01 X1.1008 Y39.7304 F20.00
G01 X1.0082 Y39.7037 F20.00
G01 X0.9201 Y39.6672 F20.00
G01 X0.8359 Y39.6207 F20.00
G01 X0.7567 Y39.5645 F20.00
G01 X0.6853 Y39.5007 F20.00
G01 X0.6215 Y39.4293 F20.00
G01 X0.5654 Y39.3504 F20.00
G01 X0.5188 Y39.2659 F20.00
G00 Z2.0000
G00 X0.4420 Y40.5760
G01 F20.00
G01 Z-0.0200
G01 F20.00
G01 X2.1437 Y40.5762 F20.00
G01 X2.1479 Y40.5787 F20.00
G01 X2.1493 Y40.5808 F20.00
G01 X2.1500 Y40.5840 F20.00
G01 X2.1500 Y41.1259 F20.00
G01 X3.7778 Y41.1259 F20.00
G01 X3.7778 Y40.1515 F20.00
G01 X3.6297 Y40.1515 F20.00
G01 X3.6051 Y40.1503 F20.00
G01 X3.5805 Y40.1466 F20.00
G01 X3.5570 Y40.1408 F20.00
G01 X3.5332 Y40.1323 F20.00
G01 X3.5113 Y40.1219 F20.00
G01 X3.4899 Y40.1091 F20.00
G01 X3.4699 Y40.0943 F20.00
G01 X3.4517 Y40.0778 F20.00
G01 X3.4353 Y40.0596 F20.00
G01 X3.4204 Y40.0396 F20.00
G01 X3.4076 Y40.0183 F20.00
G01 X3.3972 Y39.9963 F20.00
G01 X3.3888 Y39.9728 F20.00
G01 X3.3829 Y39.9491 F20.00
G01 X3.3792 Y39.9245 F20.00
G01 X3.3780 Y39.9002 F20.00
G01 X3.3780 Y39.4123 F20.00
G01 X3.3792 Y39.3876 F20.00
G01 X3.3829 Y39.3630 F20.00
G01 X3.3888 Y39.3392 F20.00
G01 X3.3972 Y39.3157 F20.00
G01 X3.4079 Y39.2933 F20.00
G01 X3.4204 Y39.2724 F20.00
G01 X3.4349 Y39.2529 F20.00
G01 X3.4517 Y39.2343 F20.00
G01 X3.4704 Y39.2174 F20.00
G01 X3.4899 Y39.2029 F20.00
G01 X3.5107 Y39.1904 F20.00
G01 X3.5332 Y39.1798 F20.00
G01 X3.5570 Y39.1713 F20.00
G01 X3.5805 Y39.1654 F20.00
G01 X3.6047 Y39.1618 F20.00
G01 X3.6297 Y39.1605 F20.00
G01 X4.5423 Y39.1605 F20.00
G01 X4.5669 Y39.1617 F20.00
G01 X4.5915 Y39.1654 F20.00
G01 X4.6150 Y39.1713 F20.00
G01 X4.6388 Y39.1798 F20.00
G01 X4.6607 Y39.1901 F20.00
G01 X4.6818 Y39.2027 F20.00
G01 X4.7021 Y39.2178 F20.00
G01 X4.7203 Y39.2343 F20.00
G01 X4.7366 Y39.2523 F20.00
G01 X4.7516 Y39.2724 F20.00
G01 X4.7644 Y39.2938 F20.00
G01 X4.7747 Y39.3156 F20.00
G01 X4.7832 Y39.3392 F20.00
G01 X4.7891 Y39.3630 F20.00
G01 X4.7927 Y39.3872 F20.00
G01 X4.7940 Y39.4123 F20.00
G01 X4.7940 Y39.8998 F20.00
G01 X4.7928 Y39.9245 F20.00
G01 X4.7891 Y39.9493 F20.00
G01 X4.7832 Y39.9728 F20.00
G01 X4.7750 Y39.9957 F20.00
G01 X4.7644 Y40.0183 F20.00
G01 X4.7516 Y40.0396 F20.00
G01 X4.7367 Y40.0596 F20.00
G01 X4.7200 Y40.0781 F20.00
G01 X4.7021 Y40.0943 F20.00
G01 X4.6824 Y40.1089 F20.00
G01 X4.6613 Y40.1216 F20.00
G01 X4.6388 Y40.1323 F20.00
G01 X4.6153 Y40.1407 F20.00
G01 X4.5915 Y40.1466 F20.00
G01 X4.5669 Y40.1503 F20.00
G01 X4.5423 Y40.1515 F20.00
G01 X4.3942 Y40.1515 F20.00
G01 X4.3942 Y41.3064 F20.00
G01 X5.3736 Y42.2859 F20.00
G01 X9.1878 Y42.2859 F20.00
G01 X9.1878 Y42.1020 F20.00
G01 X8.9960 Y42.1020 F20.00
G01 X8.9928 Y42.1013 F20.00
G01 X8.9906 Y42.1000 F20.00
G01 X8.9891 Y42.0980 F20.00
G01 X8.9880 Y42.0949 F20.00
G01 X8.9880 Y40.5940 F20.00
G01 X8.9887 Y40.5908 F20.00
G01 X8.9906 Y40.5881 F20.00
G01 X8.9928 Y40.5867 F20.00
G01 X8.9960 Y40.5860 F20.00
G01 X9.9960 Y40.5860 F20.00
G01 X10.0007 Y40.5875 F20.00
G01 X10.0033 Y40.5908 F20.00
G01 X10.0040 Y40.5940 F20.00
G01 X10.0040 Y42.0949 F20.00
G01 X10.0029 Y42.0980 F20.00
G01 X10.0014 Y42.1000 F20.00
G01 X9.9992 Y42.1013 F20.00
G01 X9.9960 Y42.1020 F20.00
G01 X9.8042 Y42.1020 F20.00
G01 X9.8042 Y42.2859 F20.00
G01 X12.0164 Y42.2859 F20.00
G01 X13.0861 Y41.2161 F20.00
G01 X13.1119 Y41.1930 F20.00
G01 X13.1402 Y41.1730 F20.00
G01 X13.1699 Y41.1566 F20.00
G01 X13.2019 Y41.1433 F20.00
G01 X13.2351 Y41.1337 F20.00
G01 X13.2699 Y41.1278 F20.00
G01 X13.3040 Y41.1259 F20.00
G01 X13.8960 Y41.1259 F20.00
G01 X13.8960 Y40.5840 F20.00
G01 X13.8967 Y40.5808 F20.00
G01 X13.8981 Y40.5787 F20.00
G01 X13.9008 Y40.5767 F20.00
G01 X13.9040 Y40.5760 F20.00
G01 X15.6040 Y40.5760 F20.00
G01 X15.6072 Y40.5767 F20.00
G01 X15.6099 Y40.5787 F20.00
G01 X15.6113 Y40.5808 F20.00
G01 X15.6120 Y40.5840 F20.00
G01 X15.6120 Y42.2849 F20.00
G01 X15.6109 Y42.2880 F20.00
G01 X15.6094 Y42.2900 F20.00
G01 X15.6072 Y42.2913 F20.00
G01 X15.6040 Y42.2920 F20.00
G01 X13.9023 Y42.2918 F20.00
G01 X13.8981 Y42.2894 F20.00
G01 X13.8967 Y42.2873 F20.00
G01 X13.8960 Y42.2840 F20.00
G01 X13.8960 Y41.7422 F20.00
G01 X13.4316 Y41.7422 F20.00
G01 X12.3616 Y42.8122 F20.00
G01 X12.3358 Y42.8352 F20.00
G01 X12.3078 Y42.8550 F20.00
G01 X12.2781 Y42.8714 F20.00
G01 X12.2453 Y42.8850 F20.00
G01 X12.2129 Y42.8944 F20.00
G01 X12.1789 Y42.9002 F20.00
G01 X12.1440 Y42.9022 F20.00
G01 X5.2460 Y42.9022 F20.00
G01 X5.2117 Y42.9003 F20.00
G01 X5.1770 Y42.8943 F20.00
G01 X5.1439 Y42.8848 F20.00
G01 X5.1127 Y42.8718 F20.00
G01 X5.0817 Y42.8547 F20.00
G01 X5.0539 Y42.8350 F20.00
G01 X5.0284 Y42.8122 F20.00
G01 X3.9584 Y41.7422 F20.00
G01 X2.1500 Y41.7422 F20.00
G01 X2.1500 Y42.2840 F20.00
G01 X2.1485 Y42.2887 F20.00
G01 X2.1445 Y42.2916 F20.00
G01 X0.4420 Y42.2920 F20.00
G01 X0.4388 Y42.2913 F20.00
G01 X0.4355 Y42.2887 F20.00
G01 X0.4340 Y42.2840 F20.00
G01 X0.4340 Y40.5840 F20.00
G01 X0.4347 Y40.5808 F20.00
G01 X0.4361 Y40.5787 F20.00
G01 X0.4388 Y40.5767 F20.00
G01 X0.4420 Y40.5760 F20.00
G00 Z2.0000
G00 X0.5188 Y45.3719
G01 F20.00
G01 Z-0.0200
G01 F20.00
G01 X0.4823 Y45.2837 F20.00
G01 X0.4556 Y45.1913 F20.00
G01 X0.4394 Y45.0959 F20.00
G01 X0.4340 Y45.0000 F20.00
G01 X0.4394 Y44.9041 F20.00
G01 X0.4556 Y44.8088 F20.00
G01 X0.4823 Y44.7163 F20.00
G01 X0.5188 Y44.6282 F20.00
G01 X0.5654 Y44.5437 F20.00
G01 X0.6209 Y44.4654 F20.00
G01 X0.6856 Y44.3930 F20.00
G01 X0.7571 Y44.3292 F20.00
G01 X0.8357 Y44.2734 F20.00
G01 X0.9193 Y44.2272 F20.00
G01 X1.0083 Y44.1903 F20.00
G01 X1.1008 Y44.1636 F20.00
G01 X1.1955 Y44.1475 F20.00
G01 X1.2924 Y44.1420 F20.00
G01 X1.3879 Y44.1474 F20.00
G01 X1.4832 Y44.1636 F20.00
G01 X1.5757 Y44.1903 F20.00
G01 X1.6639 Y44.2268 F20.00
G01 X1.7483 Y44.2734 F20.00
G01 X1.8266 Y44.3289 F20.00
G01 X1.8990 Y44.3937 F20.00
G01 X1.9629 Y44.4651 F20.00
G01 X2.0186 Y44.5437 F20.00
G01 X2.0648 Y44.6274 F20.00
G01 X2.0916 Y44.6919 F20.00
G01 X3.8949 Y44.6919 F20.00
G01 X5.0079 Y43.5788 F20.00
G01 X5.0334 Y43.5561 F20.00
G01 X5.0617 Y43.5360 F20.00
G01 X5.0914 Y43.5196 F20.00
G01 X5.1233 Y43.5063 F20.00
G01 X5.1574 Y43.4965 F20.00
G01 X5.1912 Y43.4908 F20.00
G01 X5.2255 Y43.4889 F20.00
G01 X12.3445 Y43.4889 F20.00
G01 X12.3795 Y43.4909 F20.00
G01 X12.4134 Y43.4967 F20.00
G01 X12.4459 Y43.5060 F20.00
G01 X12.4786 Y43.5196 F20.00
G01 X12.5083 Y43.5360 F20.00
G01 X12.5363 Y43.5558 F20.00
G01 X12.5621 Y43.5788 F20.00
G01 X13.6751 Y44.6919 F20.00
G01 X13.9544 Y44.6919 F20.00
G01 X13.9812 Y44.6274 F20.00
G01 X14.0274 Y44.5437 F20.00
G01 X14.0831 Y44.4651 F20.00
G01 X14.1470 Y44.3937 F20.00
G01 X14.2194 Y44.3289 F20.00
G01 X14.2977 Y44.2734 F20.00
G01 X14.3821 Y44.2268 F20.00
G01 X14.4710 Y44.1900 F20.00
G01 X14.5628 Y44.1636 F20.00
G01 X14.6575 Y44.1475 F20.00
G01 X14.7540 Y44.1420 F20.00
G01 X14.8505 Y44.1475 F20.00
G01 X14.9452 Y44.1636 F20.00
G01 X15.0370 Y44.1900 F20.00
G01 X15.1267 Y44.2272 F20.00
G01 X15.2103 Y44.2734 F20.00
G01 X15.2889 Y44.3292 F20.00
G01 X15.3607 Y44.3933 F20.00
G01 X15.4245 Y44.4647 F20.00
G01 X15.4807 Y44.5439 F20.00
G01 X15.5272 Y44.6282 F20.00
G01 X15.5637 Y44.7163 F20.00
G01 X15.5906 Y44.8095 F20.00
G01 X15.6066 Y44.9041 F20.00
G01 X15.6120 Y45.0000 F20.00
G01 X15.6066 Y45.0959 F20.00
G01 X15.5904 Y45.1913 F20.00
G01 X15.5637 Y45.2837 F20.00
G01 X15.5272 Y45.3719 F20.00
G01 X15.4806 Y45.4564 F20.00
G01 X15.4251 Y45.5346 F20.00
G01 X15.3604 Y45.6070 F20.00
G01 X15.2889 Y45.6709 F20.00
G01 X15.2103 Y45.7266 F20.00
G01 X15.1267 Y45.7729 F20.00
G01 X15.0377 Y45.8098 F20.00
G01 X14.9452 Y45.8364 F20.00
G01 X14.8499 Y45.8526 F20.00
G01 X14.7540 Y45.8580 F20.00
G01 X14.6581 Y45.8526 F20.00
G01 X14.5628 Y45.8364 F20.00
G01 X14.4702 Y45.8097 F20.00
G01 X14.3821 Y45.7732 F20.00
G01 X14.2979 Y45.7267 F20.00
G01 X14.2191 Y45.6709 F20.00
G01 X14.1473 Y45.6067 F20.00
G01 X14.0829 Y45.5346 F20.00
G01 X14.0273 Y45.4561 F20.00
G01 X13.9812 Y45.3727 F20.00
G01 X13.9544 Y45.3082 F20.00
G01 X13.5475 Y45.3082 F20.00
G01 X13.5132 Y45.3063 F20.00
G01 X13.4786 Y45.3004 F20.00
G01 X13.4453 Y45.2907 F20.00
G01 X13.4134 Y45.2775 F20.00
G01 X13.3837 Y45.2610 F20.00
G01 X13.3557 Y45.2412 F20.00
G01 X13.3296 Y45.2179 F20.00
G01 X12.2169 Y44.1052 F20.00
G01 X6.6042 Y44.1052 F20.00
G01 X6.6042 Y44.3320 F20.00
G01 X6.7960 Y44.3320 F20.00
G01 X6.7992 Y44.3327 F20.00
G01 X6.8014 Y44.3341 F20.00
G01 X6.8029 Y44.3360 F20.00
G01 X6.8040 Y44.3392 F20.00
G01 X6.8040 Y45.8400 F20.00
G01 X6.8033 Y45.8433 F20.00
G01 X6.8007 Y45.8465 F20.00
G01 X6.7960 Y45.8480 F20.00
G01 X5.7952 Y45.8480 F20.00
G01 X5.7920 Y45.8470 F20.00
G01 X5.7901 Y45.8454 F20.00
G01 X5.7887 Y45.8433 F20.00
G01 X5.7880 Y45.8400 F20.00
G01 X5.7880 Y44.3392 F20.00
G01 X5.7891 Y44.3360 F20.00
G01 X5.7906 Y44.3341 F20.00
G01 X5.7928 Y44.3327 F20.00
G01 X5.7960 Y44.3320 F20.00
G01 X5.9878 Y44.3320 F20.00
G01 X5.9878 Y44.1052 F20.00
G01 X5.3531 Y44.1052 F20.00
G01 X4.3942 Y45.0642 F20.00
G01 X4.3942 Y45.9315 F20.00
G01 X4.5423 Y45.9315 F20.00
G01 X4.5669 Y45.9327 F20.00
G01 X4.5915 Y45.9364 F20.00
G01 X4.6153 Y45.9424 F20.00
G01 X4.6388 Y45.9508 F20.00
G01 X4.6613 Y45.9614 F20.00
G01 X4.6824 Y45.9742 F20.00
G01 X4.7021 Y45.9888 F20.00
G01 X4.7200 Y46.0050 F20.00
G01 X4.7367 Y46.0234 F20.00
G01 X4.7516 Y46.0434 F20.00
G01 X4.7644 Y46.0648 F20.00
G01 X4.7750 Y46.0873 F20.00
G01 X4.7832 Y46.1102 F20.00
G01 X4.7891 Y46.1338 F20.00
G01 X4.7928 Y46.1586 F20.00
G01 X4.7940 Y46.1833 F20.00
G01 X4.7940 Y46.6708 F20.00
G01 X4.7927 Y46.6958 F20.00
G01 X4.7891 Y46.7201 F20.00
G01 X4.7832 Y46.7438 F20.00
G01 X4.7747 Y46.7675 F20.00
G01 X4.7644 Y46.7893 F20.00
G01 X4.7516 Y46.8106 F20.00
G01 X4.7367 Y46.8306 F20.00
G01 X4.7205 Y46.8485 F20.00
G01 X4.7016 Y46.8656 F20.00
G01 X4.6821 Y46.8801 F20.00
G01 X4.6613 Y46.8926 F20.00
G01 X4.6382 Y46.9035 F20.00
G01 X4.6153 Y46.9117 F20.00
G01 X4.5915 Y46.9177 F20.00
G01 X4.5669 Y46.9213 F20.00
G01 X4.5426 Y46.9225 F20.00
G01 X3.6297 Y46.9225 F20.00
G01 X3.6051 Y46.9213 F20.00
G01 X3.5803 Y46.9176 F20.00
G01 X3.5567 Y46.9117 F20.00
G01 X3.5338 Y46.9035 F20.00
G01 X3.5113 Y46.8929 F20.00
G01 X3.4899 Y46.8801 F20.00
G01 X3.4697 Y46.8651 F20.00
G01 X3.4517 Y46.8488 F20.00
G01 X3.4354 Y46.8308 F20.00
G01 X3.4204 Y46.8106 F20.00
G01 X3.4076 Y46.7891 F20.00
G01 X3.3972 Y46.7673 F20.00
G01 X3.3887 Y46.7435 F20.00
G01 X3.3829 Y46.7201 F20.00
G01 X3.3793 Y46.6958 F20.00
G01 X3.3780 Y46.6712 F20.00
G01 X3.3780 Y46.1833 F20.00
G01 X3.3792 Y46.1586 F20.00
G01 X3.3829 Y46.1338 F20.00
G01 X3.3888 Y46.1102 F20.00
G01 X3.3973 Y46.0866 F20.00
G01 X3.4076 Y46.0648 F20.00
G01 X3.4202 Y46.0437 F20.00
G01 X3.4349 Y46.0239 F20.00
G01 X3.4517 Y46.0053 F20.00
G01 X3.4699 Y45.9888 F20.00
G01 X3.4899 Y45.9739 F20.00
G01 X3.5113 Y45.9612 F20.00
G01 X3.5332 Y45.9508 F20.00
G01 X3.5567 Y45.9424 F20.00
G01 X3.5805 Y45.9364 F20.00
G01 X3.6051 Y45.9327 F20.00
G01 X3.6297 Y45.9315 F20.00
G01 X3.7778 Y45.9315 F20.00
G01 X3.7778 Y45.3082 F20.00
G01 X2.0916 Y45.3082 F20.00
G01 X2.0648 Y45.3727 F20.00
G01 X2.0187 Y45.4561 F20.00
G01 X1.9629 Y45.5349 F20.00
G01 X1.8984 Y45.6070 F20.00
G01 X1.8269 Y45.6709 F20.00
G01 X1.7489 Y45.7263 F20.00
G01 X1.6647 Y45.7729 F20.00
G01 X1.5750 Y45.8100 F20.00
G01 X1.4832 Y45.8364 F20.00
G01 X1.3885 Y45.8526 F20.00
G01 X1.2920 Y45.8580 F20.00
G01 X1.1961 Y45.8526 F20.00
G01 X1.1006 Y45.8364 F20.00
G01 X1.0083 Y45.8098 F20.00
G01 X0.9201 Y45.7732 F20.00
G01 X0.8357 Y45.7266 F20.00
G01 X0.7567 Y45.6705 F20.00
G01 X0.6853 Y45.6067 F20.00
G01 X0.6215 Y45.5353 F20.00
G01 X0.5654 Y45.4564 F20.00
G01 X0.5188 Y45.3719 F20.00
G00 Z2.0000
G00 X0.5188 Y47.9119
G01 F20.00
G01 Z-0.0200
G01 F20.00
G01 X0.4823 Y47.8237 F20.00
G01 X0.4556 Y47.7313 F20.00
G01 X0.4394 Y47.6359 F20.00
G01 X0.4340 Y47.5400 F20.00
G01 X0.4394 Y47.4441 F20.00
G01 X0.4556 Y47.3488 F20.00
G01 X0.4823 Y47.2563 F20.00
G01 X0.5192 Y47.1674 F20.00
G01 X0.5654 Y47.0837 F20.00
G01 X0.6211 Y47.0051 F20.00
G01 X0.6853 Y46.9333 F20.00
G01 X0.7574 Y46.8689 F20.00
G01 X0.8357 Y46.8134 F20.00
G01 X0.9193 Y46.7672 F20.00
G01 X1.0082 Y46.7303 F20.00
G01 X1.1008 Y46.7036 F20.00
G01 X1.1955 Y46.6875 F20.00
G01 X1.2924 Y46.6820 F20.00
G01 X1.3879 Y46.6874 F20.00
G01 X1.4834 Y46.7036 F20.00
G01 X1.5757 Y46.7303 F20.00
G01 X1.6639 Y46.7668 F20.00
G01 X1.7483 Y46.8134 F20.00
G01 X1.8266 Y46.8689 F20.00
G01 X1.8990 Y46.9337 F20.00
G01 X1.9629 Y47.0051 F20.00
G01 X2.0186 Y47.0837 F20.00
G01 X2.0648 Y47.1674 F20.00
G01 X2.1017 Y47.2563 F20.00
G01 X2.1284 Y47.3488 F20.00
G01 X2.1341 Y47.3819 F20.00
G01 X2.6235 Y47.3819 F20.00
G01 X2.7677 Y47.2377 F20.00
G01 X2.7810 Y47.2259 F20.00
G01 X2.7958 Y47.2155 F20.00
G01 X2.8113 Y47.2069 F20.00
G01 X2.8270 Y47.2004 F20.00
G01 X2.8448 Y47.1953 F20.00
G01 X2.8620 Y47.1924 F20.00
G01 X2.8791 Y47.1915 F20.00
G01 X5.4830 Y47.1914 F20.00
G01 X5.5005 Y47.1924 F20.00
G01 X5.5185 Y47.1955 F20.00
G01 X5.5355 Y47.2004 F20.00
G01 X5.5512 Y47.2069 F20.00
G01 X5.5675 Y47.2159 F20.00
G01 X5.5815 Y47.2259 F20.00
G01 X5.5948 Y47.2377 F20.00
G01 X6.4078 Y48.0507 F20.00
G01 X6.4196 Y48.0640 F20.00
G01 X6.4299 Y48.0786 F20.00
G01 X6.4382 Y48.0935 F20.00
G01 X6.4451 Y48.1100 F20.00
G01 X6.4502 Y48.1278 F20.00
G01 X6.4531 Y48.1450 F20.00
G01 X6.4541 Y48.1625 F20.00
G01 X6.4541 Y49.2320 F20.00
G01 X6.7960 Y49.2320 F20.00
G01 X6.7992 Y49.2327 F20.00
G01 X6.8014 Y49.2341 F20.00
G01 X6.8029 Y49.2360 F20.00
G01 X6.8040 Y49.2392 F20.00
G01 X6.8040 Y50.7400 F20.00
G01 X6.8033 Y50.7433 F20.00
G01 X6.8007 Y50.7465 F20.00
G01 X6.7960 Y50.7480 F20.00
G01 X5.7960 Y50.7480 F20.00
G01 X5.7913 Y50.7465 F20.00
G01 X5.7887 Y50.7433 F20.00
G01 X5.7880 Y50.7400 F20.00
G01 X5.7880 Y49.2392 F20.00
G01 X5.7891 Y49.2360 F20.00
G01 X5.7906 Y49.2341 F20.00
G01 X5.7928 Y49.2327 F20.00
G01 X5.7960 Y49.2320 F20.00
G01 X6.1379 Y49.2320 F20.00
G01 X6.1379 Y48.2280 F20.00
G01 X5.4175 Y47.5076 F20.00
G01 X2.9450 Y47.5076 F20.00
G01 X2.8008 Y47.6518 F20.00
G01 X2.7879 Y47.6633 F20.00
G01 X2.7730 Y47.6740 F20.00
G01 X2.7580 Y47.6822 F20.00
G01 X2.7415 Y47.6891 F20.00
G01 X2.7245 Y47.6941 F20.00
G01 X2.7065 Y47.6971 F20.00
G01 X2.6890 Y47.6981 F20.00
G01 X2.1341 Y47.6981 F20.00
G01 X2.1284 Y47.7313 F20.00
G01 X2.1020 Y47.8230 F20.00
G01 X2.0648 Y47.9127 F20.00
G01 X2.0186 Y47.9964 F20.00
G01 X1.9631 Y48.0746 F20.00
G01 X1.8984 Y48.1470 F20.00
G01 X1.8269 Y48.2109 F20.00
G01 X1.7489 Y48.2663 F20.00
G01 X1.6639 Y48.3132 F20.00
G01 X1.5757 Y48.3498 F20.00
G01 X1.4834 Y48.3764 F20.00
G01 X1.3879 Y48.3926 F20.00
G01 X1.2920 Y48.3980 F20.00
G01 X1.1964 Y48.3927 F20.00
G01 X1.1008 Y48.3764 F20.00
G01 X1.0082 Y48.3497 F20.00
G01 X0.9201 Y48.3132 F20.00
G01 X0.8359 Y48.2667 F20.00
G01 X0.7567 Y48.2105 F20.00
G01 X0.6853 Y48.1467 F20.00
G01 X0.6215 Y48.0753 F20.00
G01 X0.5654 Y47.9964 F20.00
G01 X0.5188 Y47.9119 F20.00
G00 Z2.0000
G00 X0.4420 Y49.2220
G01 F20.00
G01 Z-0.0200
G01 F20.00
G01 X2.1437 Y49.2222 F20.00
G01 X2.1479 Y49.2247 F20.00
G01 X2.1493 Y49.2268 F20.00
G01 X2.1500 Y49.2300 F20.00
G01 X2.1500 Y49.7719 F20.00
G01 X3.7778 Y49.7719 F20.00
G01 X3.7778 Y48.7975 F20.00
G01 X3.6297 Y48.7975 F20.00
G01 X3.6051 Y48.7963 F20.00
G01 X3.5805 Y48.7927 F20.00
G01 X3.5570 Y48.7868 F20.00
G01 X3.5332 Y48.7783 F20.00
G01 X3.5113 Y48.7679 F20.00
G01 X3.4899 Y48.7551 F20.00
G01 X3.4699 Y48.7403 F20.00
G01 X3.4517 Y48.7238 F20.00
G01 X3.4353 Y48.7056 F20.00
G01 X3.4204 Y48.6856 F20.00
G01 X3.4076 Y48.6643 F20.00
G01 X3.3972 Y48.6423 F20.00
G01 X3.3888 Y48.6188 F20.00
G01 X3.3829 Y48.5951 F20.00
G01 X3.3792 Y48.5705 F20.00
G01 X3.3780 Y48.5462 F20.00
G01 X3.3780 Y48.0583 F20.00
G01 X3.3792 Y48.0336 F20.00
G01 X3.3829 Y48.0090 F20.00
G01 X3.3888 Y47.9852 F20.00
G01 X3.3972 Y47.9617 F20.00
G01 X3.4079 Y47.9393 F20.00
G01 X3.4204 Y47.9184 F20.00
G01 X3.4349 Y47.8989 F20.00
G01 X3.4517 Y47.8803 F20.00
G01 X3.4704 Y47.8634 F20.00
G01 X3.4899 Y47.8489 F20.00
G01 X3.5107 Y47.8364 F20.00
G01 X3.5332 Y47.8258 F20.00
G01 X3.5570 Y47.8173 F20.00
G01 X3.5805 Y47.8114 F20.00
G01 X3.6047 Y47.8078 F20.00
G01 X3.6297 Y47.8065 F20.00
G01 X4.5423 Y47.8065 F20.00
G01 X4.5669 Y47.8077 F20.00
G01 X4.5915 Y47.8114 F20.00
G01 X4.6150 Y47.8173 F20.00
G01 X4.6388 Y47.8258 F20.00
G01 X4.6607 Y47.8362 F20.00
G01 X4.6818 Y47.8487 F20.00
G01 X4.7021 Y47.8638 F20.00
G01 X4.7203 Y47.8803 F20.00
G01 X4.7366 Y47.8983 F20.00
G01 X4.7516 Y47.9184 F20.00
G01 X4.7644 Y47.9398 F20.00
G01 X4.7747 Y47.9616 F20.00
G01 X4.7832 Y47.9852 F20.00
G01 X4.7891 Y48.0090 F20.00
G01 X4.7927 Y48.0332 F20.00
G01 X4.7940 Y48.0583 F20.00
G01 X4.7940 Y48.5458 F20.00
G01 X4.7928 Y48.5705 F20.00
G01 X4.7891 Y48.5953 F20.00
G01 X4.7832 Y48.6188 F20.00
G01 X4.7750 Y48.6417 F20.00
G01 X4.7644 Y48.6643 F20.00
G01 X4.7516 Y48.6856 F20.00
G01 X4.7367 Y48.7056 F20.00
G01 X4.7200 Y48.7241 F20.00
G01 X4.7021 Y48.7403 F20.00
G01 X4.6824 Y48.7549 F20.00
G01 X4.6613 Y48.7676 F20.00
G01 X4.6388 Y48.7783 F20.00
G01 X4.6153 Y48.7867 F20.00
G01 X4.5915 Y48.7927 F20.00
G01 X4.5669 Y48.7963 F20.00
G01 X4.5423 Y48.7975 F20.00
G01 X4.3942 Y48.7975 F20.00
G01 X4.3942 Y49.9524 F20.00
G01 X5.3736 Y50.9319 F20.00
G01 X9.1878 Y50.9319 F20.00
G01 X9.1878 Y50.7480 F20.00
G01 X8.9960 Y50.7480 F20.00
G01 X8.9928 Y50.7473 F20.00
G01 X8.9906 Y50.7460 F20.00
G01 X8.9891 Y50.7440 F20.00
G01 X8.9880 Y50.7409 F20.00
G01 X8.9880 Y49.2400 F20.00
G01 X8.9887 Y49.2368 F20.00
G01 X8.9906 Y49.2341 F20.00
G01 X8.9928 Y49.2327 F20.00
G01 X8.9960 Y49.2320 F20.00
G01 X9.9960 Y49.2320 F20.00
G01 X10.0007 Y49.2336 F20.00
G01 X10.0033 Y49.2368 F20.00
G01 X10.0040 Y49.2400 F20.00
G01 X10.0040 Y50.7409 F20.00
G01 X10.0029 Y50.7440 F20.00
G01 X10.0014 Y50.7460 F20.00
G01 X9.9992 Y50.7473 F20.00
G01 X9.9960 Y50.7480 F20.00
G01 X9.8042 Y50.7480 F20.00
G01 X9.8042 Y50.9319 F20.00
G01 X12.0164 Y50.9319 F20.00
G01 X13.0861 Y49.8621 F20.00
G01 X13.1119 Y49.8390 F20.00
G01 X13.1402 Y49.8190 F20.00
G01 X13.1699 Y49.8026 F20.00
G01 X13.2019 Y49.7893 F20.00
G01 X13.2351 Y49.7797 F20.00
G01 X13.2699 Y49.7738 F20.00
G01 X13.3040 Y49.7719 F20.00
G01 X13.8960 Y49.7719 F20.00
G01 X13.8960 Y49.2300 F20.00
G01 X13.8967 Y49.2268 F20.00
G01 X13.8981 Y49.2247 F20.00
G01 X13.9008 Y49.2227 F20.00
G01 X13.9040 Y49.2220 F20.00
G01 X15.6040 Y49.2220 F20.00
G01 X15.6072 Y49.2227 F20.00
G01 X15.6099 Y49.2247 F20.00
G01 X15.6113 Y49.2268 F20.00
G01 X15.6120 Y49.2300 F20.00
G01 X15.6120 Y50.9309 F20.00
G01 X15.6109 Y50.9340 F20.00
G01 X15.6094 Y50.9360 F20.00
G01 X15.6072 Y50.9373 F20.00
G01 X15.6040 Y50.9380 F20.00
G01 X13.9023 Y50.9379 F20.00
G01 X13.8981 Y50.9354 F20.00
G01 X13.8967 Y50.9333 F20.00
G01 X13.8960 Y50.9300 F20.00
G01 X13.8960 Y50.3882 F20.00
G01 X13.4316 Y50.3882 F20.00
G01 X12.3616 Y51.4582 F20.00
G01 X12.3358 Y51.4812 F20.00
G01 X12.3078 Y51.5010 F20.00
G01 X12.2781 Y51.5175 F20.00
G01 X12.2453 Y51.5310 F20.00
G01 X12.2129 Y51.5404 F20.00
G01 X12.1789 Y51.5462 F20.00
G01 X12.1440 Y51.5482 F20.00
G01 X5.2460 Y51.5482 F20.00
G01 X5.2117 Y51.5463 F20.00
G01 X5.1770 Y51.5403 F20.00
G01 X5.1439 Y51.5308 F20.00
G01 X5.1127 Y51.5178 F20.00
G01 X5.0817 Y51.5007 F20.00
G01 X5.0539 Y51.4810 F20.00
G01 X5.0284 Y51.4582 F20.00
G01 X3.9584 Y50.3882 F20.00
G01 X2.1500 Y50.3882 F20.00
G01 X2.1500 Y50.9300 F20.00
G01 X2.1485 Y50.9347 F20.00
G01 X2.1445 Y50.9376 F20.00
G01 X0.4420 Y50.9380 F20.00
G01 X0.4388 Y50.9373 F20.00
G01 X0.4355 Y50.9347 F20.00
G01 X0.4340 Y50.9300 F20.00
G01 X0.4340 Y49.2300 F20.00
G01 X0.4347 Y49.2268 F20.00
G01 X0.4361 Y49.2247 F20.00
G01 X0.4388 Y49.2227 F20.00
G01 X0.4420 Y49.2220 F20.00
G00 Z2.0000
G00 X0.5188 Y54.0179
G01 F20.00
G01 Z-0.0200
G01 F20.00
G01 X0.4823 Y53.9297 F20.00
G01 X0.4556 Y53.8373 F20.00
G01 X0.4394 Y53.7419 F20.00
G01 X0.4340 Y53.6460 F20.00
G01 X0.4394 Y53.5501 F20.00
G01 X0.4556 Y53.4548 F20.00
G01 X0.4823 Y53.3623 F20.00
G01 X0.5188 Y53.2742 F20.00
G01 X0.5654 Y53.1897 F20.00
G01 X0.6209 Y53.1114 F20.00
G01 X0.6856 Y53.0390 F20.00
G01 X0.7571 Y52.9752 F20.00
G01 X0.8357 Y52.9195 F20.00
G01 X0.9193 Y52.8732 F20.00
G01 X1.0083 Y52.8363 F20.00
G01 X1.1008 Y52.8096 F20.00
G01 X1.1955 Y52.7935 F20.00
G01 X1.2924 Y52.7880 F20.00
G01 X1.3879 Y52.7934 F20.00
G01 X1.4832 Y52.8096 F20.00
G01 X1.5757 Y52.8363 F20.00
G01 X1.6639 Y52.8728 F20.00
G01 X1.7483 Y52.9195 F20.00
G01 X1.8266 Y52.9749 F20.00
G01 X1.8990 Y53.0397 F20.00
G01 X1.9629 Y53.1112 F20.00
G01 X2.0186 Y53.1897 F20.00
G01 X2.0648 Y53.2734 F20.00
G01 X2.0916 Y53.3379 F20.00
G01 X3.8949 Y53.3379 F20.00
G01 X5.0079 Y52.2248 F20.00
G01 X5.0334 Y52.2021 F20.00
G01 X5.0617 Y52.1820 F20.00
G01 X5.0914 Y52.1656 F20.00
G01 X5.1233 Y52.1523 F20.00
G01 X5.1574 Y52.1425 F20.00
G01 X5.1912 Y52.1368 F20.00
G01 X5.2255 Y52.1349 F20.00
G01 X12.3445 Y52.1349 F20.00
G01 X12.3795 Y52.1369 F20.00
G01 X12.4134 Y52.1427 F20.00
G01 X12.4459 Y52.1520 F20.00
G01 X12.4786 Y52.1656 F20.00
G01 X12.5083 Y52.1820 F20.00
G01 X12.5363 Y52.2018 F20.00
G01 X12.5621 Y52.2248 F20.00
G01 X13.6751 Y53.3379 F20.00
G01 X13.9544 Y53.3379 F20.00
G01 X13.9812 Y53.2734 F20.00
G01 X14.0274 Y53.1897 F20.00
G01 X14.0831 Y53.1112 F20.00
G01 X14.1470 Y53.0397 F20.00
G01 X14.2194 Y52.9749 F20.00
G01 X14.2977 Y52.9195 F20.00
G01 X14.3821 Y52.8728 F20.00
G01 X14.4710 Y52.8360 F20.00
G01 X14.5628 Y52.8096 F20.00
G01 X14.6575 Y52.7935 F20.00
G01 X14.7540 Y52.7880 F20.00
G01 X14.8505 Y52.7935 F20.00
G01 X14.9452 Y52.8096 F20.00
G01 X15.0370 Y52.8360 F20.00
G01 X15.1267 Y52.8732 F20.00
G01 X15.2103 Y52.9195 F20.00
G01 X15.2889 Y52.9752 F20.00
G01 X15.3607 Y53.0393 F20.00
G01 X15.4245 Y53.1107 F20.00
G01 X15.4807 Y53.1899 F20.00
G01 X15.5272 Y53.2742 F20.00
G01 X15.5637 Y53.3623 F20.00
G01 X15.5906 Y53.4555 F20.00
G01 X15.6066 Y53.5501 F20.00
G01 X15.6120 Y53.6460 F20.00
G01 X15.6066 Y53.7419 F20.00
G01 X15.5904 Y53.8373 F20.00
G01 X15.5637 Y53.9297 F20.00
G01 X15.5272 Y54.0179 F20.00
G01 X15.4806 Y54.1024 F20.00
G01 X15.4251 Y54.1806 F20.00
G01 X15.3604 Y54.2530 F20.00
G01 X15.2889 Y54.3169 F20.00
G01 X15.2103 Y54.3726 F20.00
G01 X15.1267 Y54.4189 F20.00
G01 X15.0377 Y54.4558 F20.00
G01 X14.9452 Y54.4824 F20.00
G01 X14.8499 Y54.4987 F20.00
G01 X14.7540 Y54.5040 F20.00
G01 X14.6581 Y54.4987 F20.00
G01 X14.5628 Y54.4824 F20.00
G01 X14.4702 Y54.4557 F20.00
G01 X14.3821 Y54.4192 F20.00
G01 X14.2979 Y54.3727 F20.00
G01 X14.2191 Y54.3169 F20.00
G01 X14.1473 Y54.2527 F20.00
G01 X14.0829 Y54.1806 F20.00
G01 X14.0273 Y54.1021 F20.00
G01 X13.9812 Y54.0187 F20.00
G01 X13.9544 Y53.9542 F20.00
G01 X13.5475 Y53.9542 F20.00
G01 X13.5132 Y53.9523 F20.00
G01 X13.4786 Y53.9464 F20.00
G01 X13.4453 Y53.9367 F20.00
G01 X13.4134 Y53.9235 F20.00
G01 X13.3837 Y53.9070 F20.00
G01 X13.3557 Y53.8872 F20.00
G01 X13.3296 Y53.8639 F20.00
G01 X12.2169 Y52.7512 F20.00
G01 X6.6042 Y52.7512 F20.00
G01 X6.6042 Y52.9780 F20.00
G01 X6.7960 Y52.9780 F20.00
G01 X6.7992 Y52.9787 F20.00
G01 X6.8014 Y52.9801 F20.00
G01 X6.8029 Y52.9820 F20.00
G01 X6.8040 Y52.9852 F20.00
G01 X6.8040 Y54.4860 F20.00
G01 X6.8033 Y54.4893 F20.00
G01 X6.8007 Y54.4925 F20.00
G01 X6.7960 Y54.4940 F20.00
G01 X5.7952 Y54.4940 F20.00
G01 X5.7920 Y54.4930 F20.00
G01 X5.7901 Y54.4914 F20.00
G01 X5.7887 Y54.4893 F20.00
G01 X5.7880 Y54.4860 F20.00
G01 X5.7880 Y52.9852 F20.00
G01 X5.7891 Y52.9820 F20.00
G01 X5.7906 Y52.9801 F20.00
G01 X5.7928 Y52.9787 F20.00
G01 X5.7960 Y52.9780 F20.00
G01 X5.9878 Y52.9780 F20.00
G01 X5.9878 Y52.7512 F20.00
G01 X5.3531 Y52.7512 F20.00
G01 X4.3942 Y53.7102 F20.00
G01 X4.3942 Y54.5775 F20.00
G01 X4.5423 Y54.5775 F20.00
G01 X4.5669 Y54.5787 F20.00
G01 X4.5915 Y54.5824 F20.00
G01 X4.6153 Y54.5884 F20.00
G01 X4.6388 Y54.5968 F20.00
G01 X4.6613 Y54.6075 F20.00
G01 X4.6824 Y54.6202 F20.00
G01 X4.7021 Y54.6348 F20.00
G01 X4.7200 Y54.6510 F20.00
G01 X4.7367 Y54.6694 F20.00
G01 X4.7516 Y54.6894 F20.00
G01 X4.7644 Y54.7108 F20.00
G01 X4.7750 Y54.7333 F20.00
G01 X4.7832 Y54.7562 F20.00
G01 X4.7891 Y54.7798 F20.00
G01 X4.7928 Y54.8046 F20.00
G01 X4.7940 Y54.8293 F20.00
G01 X4.7940 Y55.3168 F20.00
G01 X4.7927 Y55.3418 F20.00
G01 X4.7891 Y55.3661 F20.00
G01 X4.7832 Y55.3898 F20.00
G01 X4.7747 Y55.4135 F20.00
G01 X4.7644 Y55.4353 F20.00
G01 X4.7516 Y55.4566 F20.00
G01 X4.7367 Y55.4766 F20.00
G01 X4.7205 Y55.4945 F20.00
G01 X4.7016 Y55.5116 F20.00
G01 X4.6821 Y55.5261 F20.00
G01 X4.6613 Y55.5386 F20.00
G01 X4.6382 Y55.5495 F20.00
G01 X4.6153 Y55.5577 F20.00
G01 X4.5915 Y55.5637 F20.00
G01 X4.5669 Y55.5673 F20.00
G01 X4.5426 Y55.5685 F20.00
G01 X3.6297 Y55.5685 F20.00
G01 X3.6051 Y55.5673 F20.00
G01 X3.5803 Y55.5636 F20.00
G01 X3.5567 Y55.5577 F20.00
G01 X3.5338 Y55.5495 F20.00
G01 X3.5113 Y55.5389 F20.00
G01 X3.4899 Y55.5261 F20.00
G01 X3.4697 Y55.5111 F20.00
G01 X3.4517 Y55.4948 F20.00
G01 X3.4354 Y55.4768 F20.00
G01 X3.4204 Y55.4566 F20.00
G01 X3.4076 Y55.4351 F20.00
G01 X3.3972 Y55.4133 F20.00
G01 X3.3887 Y55.3895 F20.00
G01 X3.3829 Y55.3661 F20.00
G01 X3.3793 Y55.3418 F20.00
G01 X3.3780 Y55.3172 F20.00
G01 X3.3780 Y54.8293 F20.00
G01 X3.3792 Y54.8046 F20.00
G01 X3.3829 Y54.7798 F20.00
G01 X3.3888 Y54.7562 F20.00
G01 X3.3973 Y54.7326 F20.00
G01 X3.4076 Y54.7108 F20.00
G01 X3.4202 Y54.6897 F20.00
G01 X3.4349 Y54.6699 F20.00
G01 X3.4517 Y54.6513 F20.00
G01 X3.4699 Y54.6348 F20.00
G01 X3.4899 Y54.6200 F20.00
G01 X3.5113 Y54.6072 F20.00
G01 X3.5332 Y54.5968 F20.00
G01 X3.5567 Y54.5884 F20.00
G01 X3.5805 Y54.5824 F20.00
G01 X3.6051 Y54.5787 F20.00
G01 X3.6297 Y54.5775 F20.00
G01 X3.7778 Y54.5775 F20.00
G01 X3.7778 Y53.9542 F20.00
G01 X2.0916 Y53.9542 F20.00
G01 X2.0648 Y54.0187 F20.00
G01 X2.0187 Y54.1021 F20.00
G01 X1.9629 Y54.1809 F20.00
G01 X1.8984 Y54.2530 F20.00
G01 X1.8269 Y54.3169 F20.00
G01 X1.7489 Y54.3723 F20.00
G01 X1.6647 Y54.4189 F20.00
G01 X1.5750 Y54.4560 F20.00
G01 X1.4832 Y54.4824 F20.00
G01 X1.3885 Y54.4986 F20.00
G01 X1.2920 Y54.5040 F20.00
G01 X1.1961 Y54.4987 F20.00
G01 X1.1006 Y54.4824 F20.00
G01 X1.0083 Y54.4558 F20.00
G01 X0.9201 Y54.4192 F20.00
G01 X0.8357 Y54.3726 F20.00
G01 X0.7567 Y54.3166 F20.00
G01 X0.6853 Y54.2527 F20.00
G01 X0.6215 Y54.1813 F20.00
G01 X0.5654 Y54.1024 F20.00
G01 X0.5188 Y54.0179 F20.00
G00 Z2.0000
G00 X0.5188 Y56.5579
G01 F20.00
G01 Z-0.0200
G01 F20.00
G01 X0.4823 Y56.4697 F20.00
G01 X0.4556 Y56.3773 F20.00
G01 X0.4394 Y56.2819 F20.00
G01 X0.4340 Y56.1860 F20.00
G01 X0.4394 Y56.0901 F20.00
G01 X0.4556 Y55.9948 F20.00
G01 X0.4823 Y55.9023 F20.00
G01 X0.5192 Y55.8134 F20.00
G01 X0.5654 Y55.7297 F20.00
G01 X0.6211 Y55.6512 F20.00
G01 X0.6853 Y55.5793 F20.00
G01 X0.7574 Y55.5149 F20.00
G01 X0.8357 Y55.4595 F20.00
G01 X0.9193 Y55.4132 F20.00
G01 X1.0082 Y55.3763 F20.00
G01 X1.1008 Y55.3496 F20.00
G01 X1.1955 Y55.3335 F20.00
G01 X1.2924 Y55.3280 F20.00
G01 X1.3879 Y55.3334 F20.00
G01 X1.4834 Y55.3497 F20.00
G01 X1.5757 Y55.3763 F20.00
G01 X1.6639 Y55.4128 F20.00
G01 X1.7483 Y55.4595 F20.00
G01 X1.8266 Y55.5149 F20.00
G01 X1.8990 Y55.5797 F20.00
G01 X1.9629 Y55.6512 F20.00
G01 X2.0186 Y55.7297 F20.00
G01 X2.0648 Y55.8134 F20.00
G01 X2.1017 Y55.9023 F20.00
G01 X2.1284 Y55.9948 F20.00
G01 X2.1341 Y56.0280 F20.00
G01 X2.6235 Y56.0280 F20.00
G01 X2.7677 Y55.8838 F20.00
G01 X2.7810 Y55.8719 F20.00
G01 X2.7958 Y55.8615 F20.00
G01 X2.8113 Y55.8529 F20.00
G01 X2.8270 Y55.8464 F20.00
G01 X2.8448 Y55.8413 F20.00
G01 X2.8620 Y55.8384 F20.00
G01 X2.8791 Y55.8375 F20.00
G01 X5.4830 Y55.8375 F20.00
G01 X5.5005 Y55.8384 F20.00
G01 X5.5185 Y55.8415 F20.00
G01 X5.5355 Y55.8464 F20.00
G01 X5.5512 Y55.8529 F20.00
G01 X5.5675 Y55.8619 F20.00
G01 X5.5815 Y55.8719 F20.00
G01 X5.5948 Y55.8838 F20.00
G01 X6.4078 Y56.6968 F20.00
G01 X6.4196 Y56.7100 F20.00
G01 X6.4299 Y56.7246 F20.00
G01 X6.4382 Y56.7395 F20.00
G01 X6.4451 Y56.7560 F20.00
G01 X6.4502 Y56.7738 F20.00
G01 X6.4531 Y56.7910 F20.00
G01 X6.4541 Y56.8085 F20.00
G01 X6.4541 Y57.8780 F20.00
G01 X6.7960 Y57.8780 F20.00
G01 X6.7992 Y57.8787 F20.00
G01 X6.8014 Y57.8801 F20.00
G01 X6.8029 Y57.8820 F20.00
G01 X6.8040 Y57.8852 F20.00
G01 X6.8040 Y59.3860 F20.00
G01 X6.8033 Y59.3893 F20.00
G01 X6.8007 Y59.3925 F20.00
G01 X6.7960 Y59.3940 F20.00
G01 X5.7960 Y59.3940 F20.00
G01 X5.7913 Y59.3925 F20.00
G01 X5.7887 Y59.3893 F20.00
G01 X5.7880 Y59.3860 F20.00
G01 X5.7880 Y57.8852 F20.00
G01 X5.7891 Y57.8820 F20.00
G01 X5.7906 Y57.8801 F20.00
G01 X5.7928 Y57.8787 F20.00
G01 X5.7960 Y57.8780 F20.00
G01 X6.1379 Y57.8780 F20.00
G01 X6.1379 Y56.8740 F20.00
G01 X5.4175 Y56.1536 F20.00
G01 X2.9450 Y56.1536 F20.00
G01 X2.8008 Y56.2978 F20.00
G01 X2.7879 Y56.3093 F20.00
G01 X2.7730 Y56.3200 F20.00
G01 X2.7580 Y56.3282 F20.00
G01 X2.7415 Y56.3351 F20.00
G01 X2.7245 Y56.3401 F20.00
G01 X2.7065 Y56.3431 F20.00
G01 X2.6890 Y56.3441 F20.00
G01 X2.1341 Y56.3441 F20.00
G01 X2.1284 Y56.3773 F20.00
G01 X2.1020 Y56.4690 F20.00
G01 X2.0648 Y56.5587 F20.00
G01 X2.0186 Y56.6424 F20.00
G01 X1.9631 Y56.7206 F20.00
G01 X1.8984 Y56.7930 F20.00
G01 X1.8269 Y56.8569 F20.00
G01 X1.7489 Y56.9123 F20.00
G01 X1.6639 Y56.9592 F20.00
G01 X1.5757 Y56.9958 F20.00
G01 X1.4834 Y57.0224 F20.00
G01 X1.3879 Y57.0387 F20.00
G01 X1.2920 Y57.0440 F20.00
G01 X1.1964 Y57.0387 F20.00
G01 X1.1008 Y57.0224 F20.00
G01 X1.0082 Y56.9957 F20.00
G01 X0.9201 Y56.9592 F20.00
G01 X0.8359 Y56.9127 F20.00
G01 X0.7567 Y56.8566 F20.00
G01 X0.6853 Y56.7927 F20.00
G01 X0.6215 Y56.7213 F20.00
G01 X0.5654 Y56.6424 F20.00
G01 X0.5188 Y56.5579 F20.00
G00 Z2.0000
G00 X0.4420 Y57.8680
G01 F20.00
G01 Z-0.0200
G01 F20.00
G01 X2.1437 Y57.8682 F20.00
G01 X2.1479 Y57.8707 F20.00
G01 X2.1493 Y57.8728 F20.00
G01 X2.1500 Y57.8760 F20.00
G01 X2.1500 Y58.4179 F20.00
G01 X3.7778 Y58.4179 F20.00
G01 X3.7778 Y57.4435 F20.00
G01 X3.6297 Y57.4435 F20.00
G01 X3.6051 Y57.4423 F20.00
G01 X3.5805 Y57.4387 F20.00
G01 X3.5570 Y57.4328 F20.00
G01 X3.5332 Y57.4243 F20.00
G01 X3.5113 Y57.4139 F20.00
G01 X3.4899 Y57.4011 F20.00
G01 X3.4699 Y57.3863 F20.00
G01 X3.4517 Y57.3698 F20.00
G01 X3.4353 Y57.3516 F20.00
G01 X3.4204 Y57.3316 F20.00
G01 X3.4076 Y57.3103 F20.00
G01 X3.3972 Y57.2883 F20.00
G01 X3.3888 Y57.2648 F20.00
G01 X3.3829 Y57.2411 F20.00
G01 X3.3792 Y57.2165 F20.00
G01 X3.3780 Y57.1922 F20.00
G01 X3.3780 Y56.7043 F20.00
G01 X3.3792 Y56.6796 F20.00
G01 X3.3829 Y56.6550 F20.00
G01 X3.3888 Y56.6312 F20.00
G01 X3.3972 Y56.6078 F20.00
G01 X3.4079 Y56.5853 F20.00
G01 X3.4204 Y56.5644 F20.00
G01 X3.4349 Y56.5449 F20.00
G01 X3.4517 Y56.5263 F20.00
G01 X3.4704 Y56.5094 F20.00
G01 X3.4899 Y56.4950 F20.00
G01 X3.5107 Y56.4825 F20.00
G01 X3.5332 Y56.4718 F20.00
G01 X3.5570 Y56.4633 F20.00
G01 X3.5805 Y56.4574 F20.00
G01 X3.6047 Y56.4538 F20.00
G01 X3.6297 Y56.4525 F20.00
G01 X4.5423 Y56.4525 F20.00
G01 X4.5669 Y56.4537 F20.00
G01 X4.5915 Y56.4574 F20.00
G01 X4.6150 Y56.4633 F20.00
G01 X4.6388 Y56.4718 F20.00
G01 X4.6607 Y56.4822 F20.00
G01 X4.6818 Y56.4947 F20.00
G01 X4.7021 Y56.5098 F20.00
G01 X4.7203 Y56.5263 F20.00
G01 X4.7366 Y56.5443 F20.00
G01 X4.7516 Y56.5644 F20.00
G01 X4.7644 Y56.5858 F20.00
G01 X4.7747 Y56.6076 F20.00
G01 X4.7832 Y56.6312 F20.00
G01 X4.7891 Y56.6550 F20.00
G01 X4.7927 Y56.6792 F20.00
G01 X4.7940 Y56.7043 F20.00
G01 X4.7940 Y57.1918 F20.00
G01 X4.7928 Y57.2165 F20.00
G01 X4.7891 Y57.2413 F20.00
G01 X4.7832 Y57.2648 F20.00
G01 X4.7750 Y57.2878 F20.00
G01 X4.7644 Y57.3103 F20.00
G01 X4.7516 Y57.3316 F20.00
G01 X4.7367 Y57.3516 F20.00
G01 X4.7200 Y57.3701 F20.00
G01 X4.7021 Y57.3863 F20.00
G01 X4.6824 Y57.4009 F20.00
G01 X4.6613 Y57.4136 F20.00
G01 X4.6388 Y57.4243 F20.00
G01 X4.6153 Y57.4327 F20.00
G01 X4.5915 Y57.4387 F20.00
G01 X4.5669 Y57.4423 F20.00
G01 X4.5423 Y57.4435 F20.00
G01 X4.3942 Y57.4435 F20.00
G01 X4.3942 Y58.5984 F20.00
G01 X5.3736 Y59.5779 F20.00
G01 X9.1878 Y59.5779 F20.00
G01 X9.1878 Y59.3940 F20.00
G01 X8.9960 Y59.3940 F20.00
G01 X8.9928 Y59.3933 F20.00
G01 X8.9906 Y59.3920 F20.00
G01 X8.9891 Y59.3900 F20.00
G01 X8.9880 Y59.3869 F20.00
G01 X8.9880 Y57.8860 F20.00
G01 X8.9887 Y57.8828 F20.00
G01 X8.9906 Y57.8801 F20.00
G01 X8.9928 Y57.8787 F20.00
G01 X8.9960 Y57.8780 F20.00
G01 X9.9960 Y57.8780 F20.00
G01 X10.0007 Y57.8796 F20.00
G01 X10.0033 Y57.8828 F20.00
G01 X10.0040 Y57.8860 F20.00
G01 X10.0040 Y59.3869 F20.00
G01 X10.0029 Y59.3900 F20.00
G01 X10.0014 Y59.3920 F20.00
G01 X9.9992 Y59.3933 F20.00
G01 X9.9960 Y59.3940 F20.00
G01 X9.8042 Y59.3940 F20.00
G01 X9.8042 Y59.5779 F20.00
G01 X12.0164 Y59.5779 F20.00
G01 X13.0861 Y58.5081 F20.00
G01 X13.1119 Y58.4850 F20.00
G01 X13.1402 Y58.4650 F20.00
G01 X13.1699 Y58.4486 F20.00
G01 X13.2019 Y58.4353 F20.00
G01 X13.2351 Y58.4257 F20.00
G01 X13.2699 Y58.4198 F20.00
G01 X13.3040 Y58.4179 F20.00
G01 X13.8960 Y58.4179 F20.00
G01 X13.8960 Y57.8760 F20.00
G01 X13.8967 Y57.8728 F20.00
G01 X13.8981 Y57.8707 F20.00
G01 X13.9008 Y57.8687 F20.00
G01 X13.9040 Y57.8680 F20.00
G01 X15.6040 Y57.8680 F20.00
G01 X15.6072 Y57.8687 F20.00
G01 X15.6099 Y57.8707 F20.00
G01 X15.6113 Y57.8728 F20.00
G01 X15.6120 Y57.8760 F20.00
G01 X15.6120 Y59.5769 F20.00
G01 X15.6109 Y59.5800 F20.00
G01 X15.6094 Y59.5820 F20.00
G01 X15.6072 Y59.5833 F20.00
G01 X15.6040 Y59.5840 F20.00
G01 X13.9023 Y59.5839 F20.00
G01 X13.8981 Y59.5814 F20.00
G01 X13.8967 Y59.5793 F20.00
G01 X13.8960 Y59.5760 F20.00
G01 X13.8960 Y59.0342 F20.00
G01 X13.4316 Y59.0342 F20.00
G01 X12.3616 Y60.1042 F20.00
G01 X12.3358 Y60.1272 F20.00
G01 X12.3078 Y60.1470 F20.00
G01 X12.2781 Y60.1635 F20.00
G01 X12.2453 Y60.1770 F20.00
G01 X12.2129 Y60.1864 F20.00
G01 X12.1789 Y60.1922 F20.00
G01 X12.1440 Y60.1942 F20.00
G01 X5.2460 Y60.1942 F20.00
G01 X5.2117 Y60.1923 F20.00
G01 X5.1770 Y60.1863 F20.00
G01 X5.1439 Y60.1768 F20.00
G01 X5.1127 Y60.1638 F20.00
G01 X5.0817 Y60.1467 F20.00
G01 X5.0539 Y60.1270 F20.00
G01 X5.0284 Y60.1042 F20.00
G01 X3.9584 Y59.0342 F20.00
G01 X2.1500 Y59.0342 F20.00
G01 X2.1500 Y59.5760 F20.00
G01 X2.1485 Y59.5807 F20.00
G01 X2.1445 Y59.5836 F20.00
G01 X0.4420 Y59.5840 F20.00
G01 X0.4388 Y59.5833 F20.00
G01 X0.4355 Y59.5807 F20.00
G01 X0.4340 Y59.5760 F20.00
G01 X0.4340 Y57.8760 F20.00
G01 X0.4347 Y57.8728 F20.00
G01 X0.4361 Y57.8707 F20.00
G01 X0.4388 Y57.8687 F20.00
G01 X0.4420 Y57.8680 F20.00
G00 Z2.0000
G00 X0.5188 Y62.6639
G01 F20.00
G01 Z-0.0200
G01 F20.00
